;FLAVOR:Marlin
;TIME:1458
;Filament used: 1.15659m
;Layer height: 0.16
;MINX:88.518
;MINY:88.518
;MINZ:0.2
;MAXX:146.485
;MAXY:146.482
;MAXZ:9.8
;TARGET_MACHINE.NAME:Creality Ender-3
;Generated with Cura_SteamEngine 5.6.0
M140 S60
M105
M190 S60
M104 S200
M105
M109 S200
M82 ;absolute extrusion mode
; Ender 3 Custom Start G-code
G92 E0 ; Reset Extruder
G28 ; Home all axes
G1 Z2.0 F3000 ; Move Z Axis up little to prevent scratching of Heat Bed
G1 X0.1 Y20 Z0.3 F5000.0 ; Move to start position
G1 X0.1 Y200.0 Z0.3 F1500.0 E15 ; Draw the first line
G1 X0.4 Y200.0 Z0.3 F5000.0 ; Move to side a little
G1 X0.4 Y20 Z0.3 F1500.0 E30 ; Draw the second line
G92 E0 ; Reset Extruder
G1 Z2.0 F3000 ; Move Z Axis up little to prevent scratching of Heat Bed
G1 X5 Y20 Z0.3 F5000.0 ; Move over to prevent blob squish
G92 E0
G92 E0
G1 F2700 E-5
;LAYER_COUNT:49
;LAYER:0
M107
G0 F6000 X97.321 Y96.705 Z0.2
;TYPE:SKIRT
G1 F2700 E0
G1 F1200 X97.826 Y96.215 E0.0234
G1 X98.452 Y95.656 E0.05132
G1 X99.528 Y94.772 E0.09763
G1 X100.163 Y94.273 E0.1245
G1 X100.876 Y93.759 E0.15373
G1 X102.037 Y92.994 E0.19997
G1 X102.673 Y92.595 E0.22495
G1 X103.297 Y92.233 E0.24894
G1 X103.982 Y91.869 E0.27474
G1 X105.286 Y91.217 E0.32323
G1 X106.165 Y90.824 E0.35525
G1 X107.491 Y90.307 E0.40259
G1 X108.154 Y90.063 E0.42609
G1 X108.899 Y89.819 E0.45216
G1 X109.702 Y89.592 E0.47992
G1 X111.029 Y89.248 E0.52551
G1 X111.961 Y89.05 E0.5572
G1 X113.404 Y88.814 E0.60583
G1 X114.127 Y88.712 E0.63012
G1 X114.978 Y88.627 E0.65856
G1 X116.14 Y88.556 E0.69729
G1 X117.106 Y88.518 E0.72944
G1 X117.986 Y88.52 E0.75871
G1 X119.208 Y88.575 E0.79939
G1 X120.158 Y88.637 E0.83106
G1 X120.884 Y88.712 E0.85533
G1 X121.675 Y88.824 E0.8819
G1 X123.041 Y89.051 E0.92796
G1 X123.975 Y89.25 E0.95972
G1 X125.354 Y89.607 E1.0071
G1 X126.117 Y89.825 E1.03349
G1 X126.941 Y90.097 E1.06235
G1 X128.06 Y90.517 E1.10211
G1 X128.971 Y90.881 E1.13474
G1 X129.757 Y91.235 E1.16341
G1 X130.793 Y91.754 E1.20195
G1 X131.65 Y92.204 E1.23414
G1 X132.285 Y92.567 E1.25847
G1 X132.961 Y92.991 E1.28501
G1 X134.172 Y93.792 E1.3333
G1 X134.945 Y94.355 E1.36511
G1 X135.832 Y95.061 E1.40281
G1 X136.604 Y95.703 E1.43621
G1 X137.236 Y96.275 E1.46456
G1 X138.296 Y97.32 E1.51407
G1 X138.785 Y97.826 E1.53747
G1 X139.346 Y98.454 E1.56548
G1 X140.228 Y99.528 E1.6117
G1 X140.724 Y100.157 E1.63835
G1 X141.14 Y100.724 E1.66174
G1 X141.569 Y101.364 E1.68736
G1 X142.363 Y102.609 E1.73648
G1 X142.831 Y103.418 E1.76756
G1 X143.484 Y104.675 E1.81467
G1 X143.812 Y105.341 E1.83937
G1 X144.171 Y106.156 E1.86899
G1 X144.617 Y107.289 E1.90948
G1 X144.939 Y108.159 E1.94034
G1 X145.183 Y108.905 E1.96645
G1 X145.408 Y109.702 E1.99399
G1 X145.752 Y111.029 E2.03958
G1 X145.95 Y111.961 E2.07127
G1 X146.184 Y113.388 E2.11937
G1 X146.284 Y114.091 E2.14299
G1 X146.37 Y114.951 E2.17173
G1 X146.454 Y116.353 E2.21845
G1 X146.482 Y117.091 E2.24301
G1 X146.485 Y117.85 E2.26826
G1 X146.454 Y118.66 E2.29522
G1 X146.369 Y120.077 E2.34243
G1 X146.272 Y120.995 E2.37313
G1 X146.052 Y122.445 E2.42191
G1 X145.935 Y123.123 E2.4448
G1 X145.75 Y123.981 E2.47399
G1 X145.393 Y125.354 E2.52118
G1 X145.175 Y126.117 E2.54757
G1 X144.903 Y126.941 E2.57643
G1 X144.478 Y128.074 E2.61668
G1 X144.147 Y128.905 E2.64643
G1 X143.936 Y129.395 E2.66417
G1 X143.658 Y129.983 E2.6858
G1 X143.215 Y130.854 E2.71831
G1 X142.802 Y131.64 E2.74784
G1 X142.431 Y132.286 E2.77261
G1 X142.011 Y132.959 E2.799
G1 X141.218 Y134.159 E2.84684
G1 X140.645 Y134.945 E2.87919
G1 X139.939 Y135.832 E2.9169
G1 X139.309 Y136.59 E2.94968
G1 X138.815 Y137.143 E2.97434
G1 X138.236 Y137.742 E3.00205
G1 X137.24 Y138.722 E3.04853
G1 X136.546 Y139.346 E3.07957
G1 X135.472 Y140.228 E3.12579
G1 X134.843 Y140.723 E3.15241
G1 X134.263 Y141.149 E3.17635
G1 X133.639 Y141.568 E3.20135
G1 X132.396 Y142.363 E3.25042
G1 X131.73 Y142.754 E3.27611
G1 X131.004 Y143.141 E3.30347
G1 X129.7 Y143.791 E3.35193
G1 X128.842 Y144.171 E3.38314
G1 X127.509 Y144.693 E3.43076
G1 X126.846 Y144.937 E3.45425
G1 X126.101 Y145.181 E3.48033
G1 X125.298 Y145.408 E3.50808
G1 X123.971 Y145.752 E3.55368
G1 X123.039 Y145.95 E3.58537
G1 X121.596 Y146.186 E3.634
G1 X120.873 Y146.288 E3.65828
G1 X120.022 Y146.373 E3.68673
G1 X118.86 Y146.444 E3.72545
G1 X117.902 Y146.482 E3.75734
G1 X117.021 Y146.48 E3.78664
G1 X115.548 Y146.412 E3.83569
G1 X114.842 Y146.364 E3.85922
G1 X114.119 Y146.288 E3.8834
G1 X113.324 Y146.176 E3.9101
G1 X111.958 Y145.949 E3.95616
G1 X111.019 Y145.75 E3.98809
G1 X109.646 Y145.393 E4.03527
G1 X108.883 Y145.175 E4.06166
G1 X108.059 Y144.903 E4.09052
G1 X106.926 Y144.478 E4.13077
G1 X106.095 Y144.147 E4.16052
G1 X105.605 Y143.936 E4.17827
G1 X105.017 Y143.658 E4.1999
G1 X104.146 Y143.215 E4.2324
G1 X103.353 Y142.798 E4.2622
G1 X102.583 Y142.351 E4.29181
G1 X101.311 Y141.535 E4.34208
G1 X100.759 Y141.163 E4.36422
G1 X100.055 Y140.645 E4.39329
G1 X99.168 Y139.939 E4.43099
G1 X98.396 Y139.297 E4.46439
G1 X97.764 Y138.725 E4.49274
G1 X96.705 Y137.68 E4.54222
G1 X96.215 Y137.174 E4.56565
G1 X95.652 Y136.544 E4.59375
G1 X94.772 Y135.472 E4.63988
G1 X94.275 Y134.841 E4.6666
G1 X93.84 Y134.245 E4.69114
G1 X93.417 Y133.616 E4.71635
G1 X92.637 Y132.396 E4.76451
G1 X92.247 Y131.733 E4.7901
G1 X91.854 Y130.992 E4.81799
G1 X91.212 Y129.704 E4.86586
G1 X90.829 Y128.842 E4.89723
G1 X90.305 Y127.503 E4.94506
G1 X90.059 Y126.836 E4.9687
G1 X89.791 Y126.002 E4.99784
G1 X89.411 Y124.622 E5.04544
G1 X89.231 Y123.906 E5.07
G1 X89.075 Y123.178 E5.09476
G1 X88.94 Y122.405 E5.12086
G1 X88.724 Y120.957 E5.16956
G1 X88.627 Y120.021 E5.20085
G1 X88.556 Y118.858 E5.23961
G1 X88.518 Y117.898 E5.27156
G1 X88.52 Y117.017 E5.30086
G1 X88.588 Y115.548 E5.34978
G1 X88.636 Y114.842 E5.37331
G1 X88.715 Y114.091 E5.39843
G1 X88.83 Y113.285 E5.42551
G1 X89.043 Y111.991 E5.46913
G1 X89.249 Y111.022 E5.50207
G1 X89.607 Y109.646 E5.54936
G1 X89.825 Y108.883 E5.57576
G1 X90.097 Y108.059 E5.60462
G1 X90.522 Y106.926 E5.64487
G1 X90.853 Y106.095 E5.67462
G1 X91.064 Y105.605 E5.69236
G1 X91.342 Y105.017 E5.71399
G1 X91.785 Y104.146 E5.74649
G1 X92.198 Y103.36 E5.77603
G1 X92.574 Y102.703 E5.8012
G1 X93.003 Y102.02 E5.82803
G1 X93.804 Y100.811 E5.87627
G1 X94.357 Y100.053 E5.90747
G1 X95.213 Y98.983 E5.95305
G1 X95.716 Y98.381 E5.97914
G1 X96.291 Y97.747 E6.00761
G1 X97.321 Y96.705 E6.05634
G0 F6000 X97.599 Y96.992
G1 F1200 X98.093 Y96.513 E6.07923
G1 X98.706 Y95.965 E6.10657
G1 X99.775 Y95.086 E6.1526
G1 X100.397 Y94.597 E6.17892
G1 X101.096 Y94.093 E6.20758
G1 X102.25 Y93.333 E6.25354
G1 X102.874 Y92.941 E6.27805
G1 X103.485 Y92.586 E6.30155
G1 X104.161 Y92.227 E6.32701
G1 X105.449 Y91.582 E6.37492
G1 X106.31 Y91.197 E6.40629
G1 X107.629 Y90.682 E6.45339
G1 X108.278 Y90.443 E6.47639
G1 X109.008 Y90.204 E6.50194
G1 X109.802 Y89.979 E6.52939
G1 X111.112 Y89.639 E6.5744
G1 X112.026 Y89.445 E6.60548
G1 X113.46 Y89.21 E6.65381
G1 X114.167 Y89.11 E6.67756
G1 X115.002 Y89.026 E6.70547
G1 X116.156 Y88.956 E6.74392
G1 X117.105 Y88.918 E6.77551
G1 X117.968 Y88.92 E6.80422
G1 X119.182 Y88.974 E6.84463
G1 X120.117 Y89.035 E6.8758
G1 X120.828 Y89.108 E6.89957
G1 X121.609 Y89.219 E6.92581
G1 X122.975 Y89.446 E6.97186
G1 X123.875 Y89.637 E7.00246
G1 X125.244 Y89.992 E7.0495
G1 X125.992 Y90.205 E7.07537
G1 X126.8 Y90.471 E7.10366
G1 X127.912 Y90.889 E7.14318
G1 X128.807 Y91.246 E7.17522
G1 X129.578 Y91.593 E7.20335
G1 X130.607 Y92.108 E7.24162
G1 X131.451 Y92.551 E7.27332
G1 X132.072 Y92.906 E7.29711
G1 X132.74 Y93.325 E7.32334
G1 X133.951 Y94.126 E7.37163
G1 X134.696 Y94.668 E7.40227
G1 X135.576 Y95.369 E7.43969
G1 X136.336 Y96 E7.47255
G1 X136.955 Y96.56 E7.50031
G1 X138.009 Y97.598 E7.54951
G1 X138.487 Y98.092 E7.57238
G1 X139.037 Y98.708 E7.59984
G1 X139.914 Y99.775 E7.64578
G1 X140.401 Y100.394 E7.67198
G1 X140.817 Y100.961 E7.69537
G1 X141.232 Y101.579 E7.72013
G1 X142.017 Y102.809 E7.76866
G1 X142.476 Y103.602 E7.79913
G1 X143.125 Y104.852 E7.84598
G1 X143.446 Y105.503 E7.87012
G1 X143.799 Y106.302 E7.89917
G1 X144.242 Y107.428 E7.93942
G1 X144.559 Y108.283 E7.96974
G1 X144.798 Y109.014 E7.99532
G1 X145.021 Y109.802 E8.02256
G1 X145.361 Y111.112 E8.06758
G1 X145.555 Y112.026 E8.09865
G1 X145.788 Y113.444 E8.14645
G1 X145.886 Y114.131 E8.16953
G1 X145.971 Y114.975 E8.19774
G1 X146.054 Y116.368 E8.24416
G1 X146.082 Y117.093 E8.26829
G1 X146.085 Y117.835 E8.29297
G1 X146.055 Y118.636 E8.31963
G1 X145.971 Y120.035 E8.36624
G1 X145.874 Y120.953 E8.39695
G1 X145.658 Y122.377 E8.44485
G1 X145.544 Y123.039 E8.46719
G1 X145.363 Y123.88 E8.4958
G1 X145.008 Y125.244 E8.54268
G1 X144.795 Y125.992 E8.56855
G1 X144.528 Y126.801 E8.59689
G1 X144.106 Y127.926 E8.63685
G1 X143.78 Y128.747 E8.66623
G1 X143.575 Y129.224 E8.6835
G1 X143.301 Y129.802 E8.70477
G1 X142.861 Y130.668 E8.73708
G1 X142.455 Y131.441 E8.76612
G1 X142.092 Y132.074 E8.79039
G1 X141.677 Y132.738 E8.81643
G1 X140.884 Y133.938 E8.86427
G1 X140.332 Y134.696 E8.89546
G1 X139.631 Y135.576 E8.93288
G1 X139.001 Y136.334 E8.96566
G1 X138.527 Y136.865 E8.98934
G1 X137.955 Y137.457 E9.01672
G1 X136.972 Y138.425 E9.0626
G1 X136.292 Y139.037 E9.09303
G1 X135.225 Y139.914 E9.13897
G1 X134.606 Y140.401 E9.16517
G1 X134.04 Y140.817 E9.18853
G1 X133.424 Y141.231 E9.21321
G1 X132.193 Y142.018 E9.26181
G1 X131.542 Y142.401 E9.28693
G1 X130.825 Y142.783 E9.31395
G1 X129.538 Y143.425 E9.36179
G1 X128.696 Y143.799 E9.39243
G1 X127.371 Y144.318 E9.43976
G1 X126.722 Y144.557 E9.46276
G1 X125.992 Y144.796 E9.48831
G1 X125.198 Y145.021 E9.51576
G1 X123.888 Y145.361 E9.56078
G1 X122.974 Y145.555 E9.59185
G1 X121.54 Y145.79 E9.64018
G1 X120.833 Y145.89 E9.66393
G1 X119.998 Y145.974 E9.69184
G1 X118.844 Y146.044 E9.7303
G1 X117.903 Y146.082 E9.76162
G1 X117.039 Y146.08 E9.79036
G1 X115.575 Y146.013 E9.8391
G1 X114.884 Y145.966 E9.86214
G1 X114.175 Y145.892 E9.88585
G1 X113.39 Y145.781 E9.91222
G1 X112.024 Y145.554 E9.95827
G1 X111.12 Y145.363 E9.989
G1 X109.756 Y145.008 E10.03588
G1 X109.008 Y144.795 E10.06175
G1 X108.199 Y144.528 E10.09008
G1 X107.074 Y144.106 E10.13005
G1 X106.253 Y143.78 E10.15943
G1 X105.776 Y143.575 E10.1767
G1 X105.198 Y143.301 E10.19797
G1 X104.332 Y142.861 E10.23028
G1 X103.554 Y142.452 E10.25951
G1 X102.799 Y142.014 E10.28854
G1 X101.535 Y141.203 E10.33849
G1 X100.983 Y140.831 E10.36063
G1 X100.304 Y140.332 E10.38866
G1 X99.424 Y139.631 E10.42608
G1 X98.664 Y139 E10.45894
G1 X98.045 Y138.44 E10.4867
G1 X96.992 Y137.402 E10.53588
G1 X96.513 Y136.908 E10.55876
G1 X95.961 Y136.29 E10.58632
G1 X95.086 Y135.225 E10.63217
G1 X94.598 Y134.605 E10.65841
G1 X94.172 Y134.022 E10.68243
G1 X93.754 Y133.4 E10.70735
G1 X92.982 Y132.193 E10.75501
G1 X92.592 Y131.53 E10.78059
G1 X92.212 Y130.813 E10.80758
G1 X91.577 Y129.541 E10.85486
G1 X91.201 Y128.696 E10.88563
G1 X90.68 Y127.365 E10.93317
G1 X90.44 Y126.714 E10.95624
G1 X90.177 Y125.896 E10.98482
G1 X89.799 Y124.524 E11.03215
G1 X89.622 Y123.822 E11.05623
G1 X89.469 Y123.109 E11.08049
G1 X89.336 Y122.346 E11.10625
G1 X89.122 Y120.915 E11.15437
G1 X89.026 Y119.997 E11.18507
G1 X88.956 Y118.842 E11.22356
G1 X88.918 Y117.899 E11.25495
G1 X88.92 Y117.035 E11.28368
G1 X88.987 Y115.575 E11.3323
G1 X89.034 Y114.884 E11.35533
G1 X89.111 Y114.148 E11.37994
G1 X89.225 Y113.35 E11.40676
G1 X89.438 Y112.056 E11.45037
G1 X89.636 Y111.123 E11.4821
G1 X89.992 Y109.756 E11.52908
G1 X90.205 Y109.008 E11.55495
G1 X90.472 Y108.199 E11.58328
G1 X90.894 Y107.074 E11.62325
G1 X91.22 Y106.253 E11.65263
G1 X91.425 Y105.776 E11.66989
G1 X91.699 Y105.198 E11.69117
G1 X92.139 Y104.332 E11.72348
G1 X92.545 Y103.559 E11.75252
G1 X92.913 Y102.916 E11.77716
G1 X93.337 Y102.241 E11.80367
G1 X94.127 Y101.047 E11.85129
G1 X94.669 Y100.303 E11.8819
G1 X95.52 Y99.239 E11.92722
G1 X96.012 Y98.65 E11.95275
G1 X96.576 Y98.028 E11.98067
G1 X97.599 Y96.992 E12.0291
G0 F6000 X97.877 Y97.279
G1 F1200 X98.36 Y96.811 E12.05147
G1 X98.96 Y96.274 E12.07825
G1 X100.022 Y95.4 E12.12399
G1 X100.631 Y94.921 E12.14976
G1 X101.316 Y94.427 E12.17785
G1 X102.463 Y93.672 E12.22353
G1 X103.075 Y93.287 E12.24757
G1 X103.673 Y92.939 E12.27059
G1 X104.34 Y92.585 E12.2957
G1 X105.612 Y91.947 E12.34303
G1 X106.456 Y91.57 E12.37378
G1 X107.768 Y91.057 E12.42063
G1 X108.402 Y90.823 E12.44311
G1 X109.117 Y90.589 E12.46813
G1 X109.903 Y90.366 E12.4953
G1 X111.195 Y90.03 E12.53971
G1 X112.091 Y89.84 E12.57017
G1 X113.516 Y89.606 E12.6182
G1 X114.207 Y89.508 E12.64141
G1 X115.026 Y89.425 E12.66879
G1 X116.172 Y89.356 E12.70698
G1 X117.104 Y89.318 E12.738
G1 X117.95 Y89.32 E12.76614
G1 X119.156 Y89.373 E12.80629
G1 X120.076 Y89.433 E12.83696
G1 X120.772 Y89.504 E12.86022
G1 X121.544 Y89.614 E12.88616
G1 X122.892 Y89.837 E12.9316
G1 X123.775 Y90.024 E12.96162
G1 X125.135 Y90.377 E13.00836
G1 X125.867 Y90.585 E13.03367
G1 X126.66 Y90.846 E13.06143
G1 X127.764 Y91.26 E13.10065
G1 X128.643 Y91.611 E13.13213
G1 X129.399 Y91.951 E13.1597
G1 X130.421 Y92.462 E13.19771
G1 X131.252 Y92.898 E13.22892
G1 X131.859 Y93.245 E13.25217
G1 X132.519 Y93.659 E13.27809
G1 X133.716 Y94.45 E13.32581
G1 X134.447 Y94.981 E13.35586
G1 X135.321 Y95.677 E13.39302
G1 X136.068 Y96.297 E13.42531
G1 X136.674 Y96.845 E13.45248
G1 X137.722 Y97.876 E13.50138
G1 X138.189 Y98.358 E13.5237
G1 X138.728 Y98.962 E13.55062
G1 X139.6 Y100.022 E13.59628
G1 X140.079 Y100.631 E13.62205
G1 X140.485 Y101.184 E13.64486
G1 X140.895 Y101.794 E13.66931
G1 X141.671 Y103.009 E13.71726
G1 X142.121 Y103.786 E13.74712
G1 X142.766 Y105.029 E13.7937
G1 X143.08 Y105.665 E13.81729
G1 X143.427 Y106.448 E13.84578
G1 X143.867 Y107.567 E13.88577
G1 X144.179 Y108.407 E13.91557
G1 X144.413 Y109.123 E13.94063
G1 X144.634 Y109.903 E13.96759
G1 X144.97 Y111.195 E14.01199
G1 X145.16 Y112.091 E14.04246
G1 X145.392 Y113.501 E14.08998
G1 X145.488 Y114.171 E14.11249
G1 X145.572 Y114.999 E14.14018
G1 X145.654 Y116.384 E14.18632
G1 X145.682 Y117.095 E14.20999
G1 X145.685 Y117.82 E14.2341
G1 X145.656 Y118.612 E14.26046
G1 X145.573 Y119.993 E14.30648
G1 X145.478 Y120.893 E14.33658
G1 X145.264 Y122.309 E14.38421
G1 X145.153 Y122.955 E14.40601
G1 X144.976 Y123.779 E14.43404
G1 X144.623 Y125.135 E14.48064
G1 X144.415 Y125.867 E14.50595
G1 X144.153 Y126.661 E14.53376
G1 X143.734 Y127.778 E14.57344
G1 X143.412 Y128.589 E14.60246
G1 X143.213 Y129.053 E14.61926
G1 X142.944 Y129.621 E14.64016
G1 X142.507 Y130.482 E14.67227
G1 X142.108 Y131.242 E14.70082
G1 X141.753 Y131.862 E14.72459
G1 X141.343 Y132.517 E14.75029
G1 X140.55 Y133.717 E14.79813
G1 X140.019 Y134.447 E14.82815
G1 X139.323 Y135.321 E14.86531
G1 X138.703 Y136.068 E14.8976
G1 X138.24 Y136.587 E14.92073
G1 X137.674 Y137.172 E14.94781
G1 X136.704 Y138.128 E14.9931
G1 X136.038 Y138.728 E15.02292
G1 X134.978 Y139.6 E15.06857
G1 X134.369 Y140.079 E15.09434
G1 X133.816 Y140.485 E15.11716
G1 X133.209 Y140.894 E15.1415
G1 X131.99 Y141.673 E15.18962
G1 X131.354 Y142.048 E15.21418
G1 X130.646 Y142.425 E15.24085
G1 X129.375 Y143.06 E15.28811
G1 X128.55 Y143.427 E15.31814
G1 X127.232 Y143.943 E15.36522
G1 X126.598 Y144.177 E15.3877
G1 X125.883 Y144.411 E15.41272
G1 X125.097 Y144.634 E15.43989
G1 X123.805 Y144.97 E15.48429
G1 X122.909 Y145.16 E15.51476
G1 X121.484 Y145.394 E15.56279
G1 X120.793 Y145.492 E15.586
G1 X119.974 Y145.575 E15.61338
G1 X118.828 Y145.644 E15.65157
G1 X117.904 Y145.682 E15.68232
G1 X117.057 Y145.68 E15.7105
G1 X115.602 Y145.614 E15.75894
G1 X114.925 Y145.568 E15.78151
G1 X114.231 Y145.496 E15.80471
G1 X113.455 Y145.386 E15.83078
G1 X112.107 Y145.163 E15.87623
G1 X111.221 Y144.976 E15.90634
G1 X109.865 Y144.623 E15.95295
G1 X109.133 Y144.415 E15.97826
G1 X108.339 Y144.153 E16.00607
G1 X107.222 Y143.734 E16.04575
