;FLAVOR:Marlin
;TIME:942
;Filament used: 0.450116m
;Layer height: 0.16
;MINX:98.711
;MINY:98.7
;MINZ:0.2
;MAXX:136.301
;MAXY:136.3
;MAXZ:9.8
;TARGET_MACHINE.NAME:Creality Ender-3
;Generated with Cura_SteamEngine 5.6.0
M140 S80
M105
M190 S80
M104 S240
M105
M109 S240
M82 ;absolute extrusion mode
; Ender 3 Custom Start G-code
G92 E0 ; Reset Extruder
G28 ; Home all axes
G1 Z2.0 F3000 ; Move Z Axis up little to prevent scratching of Heat Bed
G1 X0.1 Y20 Z0.3 F5000.0 ; Move to start position
G1 X0.1 Y200.0 Z0.3 F1500.0 E15 ; Draw the first line
G1 X0.4 Y200.0 Z0.3 F5000.0 ; Move to side a little
G1 X0.4 Y20 Z0.3 F1500.0 E30 ; Draw the second line
G92 E0 ; Reset Extruder
G1 Z2.0 F3000 ; Move Z Axis up little to prevent scratching of Heat Bed
G1 X5 Y20 Z0.3 F5000.0 ; Move over to prevent blob squish
G92 E0
G92 E0
G1 F2700 E-5
;LAYER_COUNT:49
;LAYER:0
M107
G0 F6000 X103.567 Y104.884 Z0.2
;TYPE:SKIRT
G1 F2700 E0
G1 F900 X105.45 Y103.073 E0.08689
G1 X106.459 Y102.288 E0.12941
G1 X108.566 Y100.972 E0.21204
G1 X110.435 Y100.085 E0.28085
G1 X112.054 Y99.512 E0.33797
G1 X114.375 Y98.97 E0.41724
G1 X116.372 Y98.735 E0.48412
G1 X117.711 Y98.7 E0.52867
G1 X118.435 Y98.724 E0.55276
G1 X119.666 Y98.825 E0.59385
G1 X122.159 Y99.296 E0.67823
G1 X124.288 Y99.968 E0.75248
G1 X125.591 Y100.53 E0.79968
G1 X127.512 Y101.599 E0.8728
G1 X129.405 Y102.954 E0.95023
G1 X130.529 Y103.95 E1.00018
G1 X132.074 Y105.631 E1.07612
G1 X133.235 Y107.218 E1.14152
G1 X134.229 Y108.938 E1.20759
G1 X135.127 Y110.974 E1.2816
G1 X135.66 Y112.65 E1.3401
G1 X136.074 Y114.627 E1.40728
G1 X136.286 Y116.765 E1.47874
G1 X136.301 Y117.772 E1.51224
G1 X136.273 Y118.546 E1.538
G1 X136.01 Y120.773 E1.61258
G1 X135.655 Y122.367 E1.6669
G1 X134.976 Y124.4 E1.73819
G1 X133.982 Y126.545 E1.81682
G1 X133.296 Y127.696 E1.86138
G1 X131.81 Y129.691 E1.94412
G1 X130.757 Y130.83 E1.99571
G1 X129.038 Y132.336 E2.07173
G1 X127.265 Y133.563 E2.14344
G1 X125.804 Y134.362 E2.19883
G1 X123.444 Y135.333 E2.2837
G1 X122.201 Y135.7 E2.32681
G1 X119.588 Y136.181 E2.41518
G1 X118.117 Y136.288 E2.46423
G1 X117.173 Y136.3 E2.49563
G1 X116.313 Y136.265 E2.52426
G1 X113.545 Y135.876 E2.61723
G1 X112.151 Y135.52 E2.66508
G1 X110.097 Y134.769 E2.73782
G1 X108.106 Y133.781 E2.81175
G1 X106.903 Y133.023 E2.85904
G1 X104.882 Y131.423 E2.94478
G1 X103.511 Y130.059 E3.0091
G1 X102.499 Y128.825 E3.06218
G1 X101.109 Y126.686 E3.14702
G1 X100.262 Y125 E3.20978
G1 X99.752 Y123.696 E3.25635
G1 X99.052 Y121.073 E3.34664
G1 X98.814 Y119.499 E3.39959
G1 X98.711 Y117.436 E3.46829
G1 X98.857 Y115.18 E3.54348
G1 X99.223 Y113.092 E3.61399
G1 X99.557 Y111.885 E3.65564
G1 X100.551 Y109.378 E3.74534
G1 X101.238 Y108.078 E3.79425
G1 X102.623 Y106.01 E3.87703
G1 X103.567 Y104.884 E3.9259
G0 F6000 X103.874 Y105.141
G1 F900 X105.696 Y103.389 E4.00997
G1 X106.705 Y102.604 E4.05249
G1 X108.778 Y101.311 E4.13375
G1 X110.569 Y100.462 E4.19967
G1 X112.145 Y99.902 E4.2553
G1 X114.466 Y99.36 E4.33458
G1 X116.383 Y99.135 E4.39877
G1 X117.698 Y99.1 E4.44253
G1 X118.402 Y99.123 E4.46595
G1 X119.633 Y99.224 E4.50703
G1 X122.039 Y99.678 E4.58847
G1 X124.13 Y100.336 E4.66138
G1 X125.396 Y100.88 E4.70721
G1 X127.317 Y101.949 E4.78033
G1 X129.172 Y103.279 E4.85625
G1 X130.234 Y104.221 E4.90346
G1 X131.779 Y105.902 E4.9794
G1 X132.912 Y107.454 E5.04331
G1 X133.863 Y109.1 E5.10654
G1 X134.746 Y111.096 E5.17913
G1 X135.268 Y112.732 E5.23625
G1 X135.682 Y114.709 E5.30343
G1 X135.886 Y116.771 E5.37235
G1 X135.901 Y117.758 E5.40518
G1 X135.873 Y118.532 E5.43094
G1 X135.619 Y120.687 E5.50311
G1 X135.275 Y122.241 E5.55605
G1 X134.613 Y124.232 E5.62583
G1 X133.638 Y126.34 E5.70308
G1 X132.952 Y127.491 E5.74765
G1 X131.516 Y129.419 E5.82761
G1 X130.463 Y130.558 E5.8792
G1 X128.81 Y132.007 E5.95231
G1 X127.037 Y133.234 E6.02402
G1 X125.652 Y133.992 E6.07654
G1 X123.331 Y134.949 E6.16004
G1 X122.088 Y135.316 E6.20314
G1 X119.559 Y135.782 E6.28868
G1 X118.112 Y135.888 E6.33693
G1 X117.189 Y135.9 E6.36763
G1 X116.329 Y135.865 E6.39626
G1 X113.644 Y135.488 E6.48644
G1 X112.25 Y135.132 E6.53429
G1 X110.275 Y134.411 E6.60422
G1 X108.284 Y133.423 E6.67815
G1 X107.151 Y132.709 E6.72269
G1 X105.164 Y131.139 E6.80692
G1 X103.793 Y129.775 E6.87124
G1 X102.834 Y128.607 E6.92151
G1 X101.466 Y126.506 E7.00489
G1 X100.635 Y124.854 E7.0664
G1 X100.125 Y123.55 E7.11297
G1 X99.447 Y121.013 E7.20031
G1 X99.214 Y119.479 E7.25192
G1 X99.111 Y117.416 E7.32062
G1 X99.251 Y115.249 E7.39284
G1 X99.609 Y113.199 E7.46206
G1 X99.943 Y111.992 E7.50371
G1 X100.905 Y109.565 E7.59055
G1 X101.592 Y108.265 E7.63945
G1 X102.93 Y106.267 E7.71943
G1 X103.874 Y105.141 E7.7683
G0 F6000 X104.181 Y105.398
G1 F900 X105.942 Y103.705 E7.84955
G1 X106.951 Y102.92 E7.89207
G1 X108.989 Y101.651 E7.97192
G1 X110.703 Y100.839 E8.035
G1 X112.236 Y100.292 E8.08914
G1 X114.557 Y99.75 E8.16841
G1 X116.394 Y99.535 E8.22993
G1 X117.685 Y99.5 E8.27288
G1 X118.369 Y99.522 E8.29564
G1 X119.6 Y99.623 E8.33672
G1 X121.965 Y100.071 E8.41678
G1 X123.972 Y100.704 E8.48678
G1 X125.238 Y101.248 E8.53261
G1 X127.084 Y102.274 E8.60285
G1 X128.907 Y103.579 E8.67742
G1 X129.939 Y104.492 E8.72325
G1 X131.484 Y106.173 E8.79919
G1 X132.566 Y107.655 E8.86022
G1 X133.497 Y109.262 E8.92199
G1 X134.38 Y111.258 E8.99458
G1 X134.876 Y112.814 E9.0489
G1 X135.29 Y114.791 E9.11608
G1 X135.486 Y116.777 E9.18246
G1 X135.501 Y117.744 E9.21462
G1 X135.473 Y118.518 E9.24038
G1 X135.228 Y120.601 E9.31014
G1 X134.895 Y122.115 E9.3617
G1 X134.25 Y124.064 E9.42998
G1 X133.294 Y126.135 E9.50585
G1 X132.608 Y127.286 E9.55041
G1 X131.222 Y129.147 E9.62759
G1 X130.169 Y130.286 E9.67918
G1 X128.582 Y131.678 E9.7494
G1 X126.809 Y132.905 E9.82111
G1 X125.499 Y133.622 E9.87078
G1 X123.218 Y134.565 E9.95287
G1 X121.975 Y134.932 E9.99598
G1 X119.53 Y135.383 E10.07867
G1 X118.107 Y135.488 E10.12613
G1 X117.205 Y135.5 E10.15613
G1 X116.345 Y135.465 E10.18476
G1 X113.743 Y135.1 E10.27215
G1 X112.349 Y134.744 E10.32001
G1 X110.453 Y134.053 E10.38712
G1 X108.462 Y133.065 E10.46105
G1 X107.399 Y132.395 E10.50284
G1 X105.446 Y130.855 E10.58556
G1 X104.075 Y129.491 E10.64989
G1 X103.169 Y128.388 E10.69736
G1 X101.823 Y126.326 E10.77926
G1 X101.008 Y124.708 E10.83952
G1 X100.498 Y123.404 E10.88609
G1 X99.842 Y120.953 E10.97048
G1 X99.614 Y119.459 E11.02075
G1 X99.511 Y117.396 E11.08945
G1 X99.645 Y115.318 E11.15871
G1 X99.995 Y113.306 E11.22663
G1 X100.329 Y112.099 E11.26828
G1 X101.259 Y109.752 E11.35225
G1 X101.946 Y108.452 E11.40115
G1 X103.237 Y106.524 E11.47833
G1 X104.181 Y105.398 E11.5272
G0 F6000 X104.488 Y105.655
G1 F900 X106.188 Y104.021 E11.60563
G1 X107.197 Y103.236 E11.64815
G1 X109.161 Y102.012 E11.72512
G1 X110.838 Y101.216 E11.78686
G1 X112.327 Y100.682 E11.83947
G1 X114.648 Y100.14 E11.91874
G1 X116.405 Y99.935 E11.97758
G1 X117.672 Y99.9 E12.01973
G1 X118.336 Y99.921 E12.04183
G1 X119.567 Y100.022 E12.08291
G1 X121.89 Y100.464 E12.16156
G1 X123.814 Y101.072 E12.22867
G1 X125.08 Y101.616 E12.2745
G1 X126.851 Y102.599 E12.34187
G1 X128.642 Y103.879 E12.41509
G1 X129.674 Y104.792 E12.46092
G1 X131.161 Y106.409 E12.53398
G1 X132.243 Y107.891 E12.59502
G1 X133.131 Y109.424 E12.65394
G1 X134.014 Y111.42 E12.72653
G1 X134.484 Y112.896 E12.77805
G1 X134.898 Y114.873 E12.84523
G1 X135.086 Y116.783 E12.90907
G1 X135.101 Y117.73 E12.94057
G1 X135.073 Y118.504 E12.96633
G1 X134.837 Y120.515 E13.03368
G1 X134.504 Y122.029 E13.08523
G1 X133.887 Y123.897 E13.15067
G1 X132.95 Y125.93 E13.22512
G1 X132.264 Y127.081 E13.26969
G1 X130.928 Y128.875 E13.34408
G1 X129.875 Y130.014 E13.39568
G1 X128.354 Y131.349 E13.46299
G1 X126.616 Y132.554 E13.53333
G1 X125.346 Y133.252 E13.58153
G1 X123.105 Y134.181 E13.66221
G1 X121.862 Y134.548 E13.70532
G1 X119.5 Y134.984 E13.78521
G1 X118.102 Y135.088 E13.83183
G1 X117.221 Y135.1 E13.86114
G1 X116.361 Y135.065 E13.88977
G1 X113.842 Y134.712 E13.97437
G1 X112.448 Y134.356 E14.02222
G1 X110.631 Y133.695 E14.08653
G1 X108.675 Y132.726 E14.15913
G1 X107.647 Y132.081 E14.19949
G1 X105.694 Y130.541 E14.28222
G1 X104.384 Y129.236 E14.34372
G1 X103.504 Y128.169 E14.38972
G1 X102.18 Y126.146 E14.47013
G1 X101.381 Y124.562 E14.52914
G1 X100.871 Y123.258 E14.57571
G1 X100.237 Y120.892 E14.65718
G1 X100.014 Y119.439 E14.70607
G1 X99.911 Y117.376 E14.77477
G1 X100.039 Y115.386 E14.8411
G1 X100.381 Y113.413 E14.9077
G1 X100.715 Y112.206 E14.94935
G1 X101.613 Y109.939 E15.03045
G1 X102.3 Y108.639 E15.07936
G1 X103.544 Y106.781 E15.15373
G1 X104.488 Y105.655 E15.2026
G0 F6000 X104.795 Y105.912
G1 F900 X106.434 Y104.337 E15.2782
G1 X107.443 Y103.552 E15.32072
G1 X109.372 Y102.352 E15.39628
G1 X110.973 Y101.593 E15.45521
G1 X112.462 Y101.059 E15.50783
G1 X114.695 Y100.537 E15.5841
G1 X116.416 Y100.335 E15.64173
G1 X117.66 Y100.3 E15.68312
G1 X118.303 Y100.32 E15.70452
G1 X119.534 Y100.421 E15.7456
G1 X121.77 Y100.846 E15.8213
G1 X123.656 Y101.44 E15.88707
G1 X124.922 Y101.984 E15.9329
G1 X126.619 Y102.925 E15.99744
G1 X128.377 Y104.179 E16.06926
G1 X129.409 Y105.092 E16.11509
G1 X130.838 Y106.645 E16.18528
G1 X131.897 Y108.092 E16.24492
G1 X132.765 Y109.586 E16.30239
G1 X133.648 Y111.582 E16.37498
G1 X134.092 Y112.978 E16.42371
G1 X134.506 Y114.955 E16.49089
G1 X134.686 Y116.789 E16.55218
G1 X134.701 Y117.716 E16.58302
G1 X134.673 Y118.49 E16.60878
G1 X134.446 Y120.429 E16.67371
G1 X134.113 Y121.943 E16.72527
G1 X133.524 Y123.73 E16.78785
G1 X132.606 Y125.725 E16.86089
G1 X131.92 Y126.876 E16.90546
G1 X130.634 Y128.603 E16.97707
G1 X129.581 Y129.742 E17.02867
G1 X128.126 Y131.02 E17.09308
G1 X126.423 Y132.203 E17.16204
G1 X125.153 Y132.901 E17.21024
G1 X122.992 Y133.797 E17.28805
G1 X121.749 Y134.164 E17.33116
G1 X119.47 Y134.585 E17.40824
G1 X118.096 Y134.688 E17.45407
G1 X117.237 Y134.7 E17.48264
G1 X116.377 Y134.665 E17.51127
G1 X113.941 Y134.324 E17.59308
G1 X112.547 Y133.968 E17.64093
G1 X110.808 Y133.336 E17.70247
G1 X108.888 Y132.387 E17.77371
G1 X107.86 Y131.742 E17.81407
G1 X105.976 Y130.257 E17.89386
G1 X104.693 Y128.981 E17.95404
G1 X103.813 Y127.914 E18.00004
G1 X102.537 Y125.966 E18.0775
G1 X101.754 Y124.416 E18.13526
G1 X101.244 Y123.112 E18.18183
G1 X100.632 Y120.831 E18.26038
G1 X100.414 Y119.419 E18.3079
G1 X100.311 Y117.356 E18.3766
G1 X100.433 Y115.454 E18.43999
G1 X100.767 Y113.52 E18.50526
G1 X101.101 Y112.313 E18.54692
G1 X101.967 Y110.126 E18.62515
G1 X102.654 Y108.826 E18.67406
G1 X103.851 Y107.038 E18.74562
G1 X104.795 Y105.912 E18.79449
G0 F6000 X105.072 Y106.2
G1 F900 X106.68 Y104.653 E18.86871
G1 X107.689 Y103.868 E18.91123
G1 X109.544 Y102.713 E18.98391
G1 X111.108 Y101.97 E19.0415
G1 X112.597 Y101.436 E19.09411
G1 X114.742 Y100.934 E19.16738
G1 X116.427 Y100.735 E19.22381
G1 X117.648 Y100.7 E19.26444
G1 X118.27 Y100.719 E19.28514
G1 X119.501 Y100.82 E19.32622
G1 X121.695 Y101.239 E19.40051
G1 X123.498 Y101.808 E19.4634
G1 X124.764 Y102.352 E19.50923
G1 X126.387 Y103.251 E19.57093
G1 X128.112 Y104.479 E19.64136
G1 X129.144 Y105.392 E19.68719
G1 X130.515 Y106.882 E19.75453
G1 X131.551 Y108.294 E19.81278
G1 X132.399 Y109.748 E19.86877
G1 X133.267 Y111.704 E19.93994
G1 X133.7 Y113.06 E19.98729
G1 X134.114 Y115.037 E20.05447
G1 X134.286 Y116.796 E20.11325
G1 X134.301 Y117.702 E20.14339
G1 X134.273 Y118.476 E20.16915
G1 X134.055 Y120.343 E20.23167
G1 X133.722 Y121.857 E20.28323
G1 X133.161 Y123.563 E20.34296
G1 X132.262 Y125.52 E20.41459
G1 X131.576 Y126.671 E20.45915
G1 X130.34 Y128.331 E20.52799
G1 X129.287 Y129.47 E20.57958
G1 X127.898 Y130.692 E20.64111
G1 X126.23 Y131.852 E20.70869
G1 X124.96 Y132.55 E20.75689
G1 X122.879 Y133.413 E20.83182
G1 X121.636 Y133.78 E20.87493
G1 X119.44 Y134.186 E20.9492
G1 X118.09 Y134.288 E20.99423
G1 X117.253 Y134.3 E21.02207
G1 X116.393 Y134.265 E21.0507
G1 X114.04 Y133.936 E21.12972
G1 X112.646 Y133.58 E21.17758
G1 X110.985 Y132.977 E21.23635
G1 X109.101 Y132.048 E21.30621
G1 X108.073 Y131.403 E21.34658
G1 X106.258 Y129.973 E21.42343
G1 X105.002 Y128.726 E21.4823
G1 X104.122 Y127.659 E21.5283
G1 X102.894 Y125.785 E21.60282
G1 X102.127 Y124.27 E21.6593
G1 X101.617 Y122.966 E21.70587
G1 X101.027 Y120.77 E21.7815
G1 X100.814 Y119.399 E21.82764
G1 X100.711 Y117.336 E21.89635
G1 X100.827 Y115.522 E21.9568
G1 X101.153 Y113.627 E22.02076
G1 X101.487 Y112.42 E22.06241
G1 X102.321 Y110.313 E22.13778
G1 X103.008 Y109.013 E22.18668
G1 X104.158 Y107.294 E22.25547
G1 X105.072 Y106.2 E22.30289
G0 F6000 X105.349 Y106.488
G1 F900 X106.926 Y104.969 E22.37571
G1 X107.935 Y104.184 E22.41823
G1 X109.755 Y103.053 E22.4895
G1 X111.243 Y102.347 E22.54428
G1 X112.732 Y101.813 E22.59689
G1 X114.789 Y101.331 E22.66716
G1 X116.439 Y101.135 E22.72243
G1 X117.636 Y101.1 E22.76226
G1 X118.237 Y101.118 E22.78226
G1 X119.468 Y101.219 E22.82334
G1 X121.62 Y101.632 E22.89622
G1 X123.34 Y102.176 E22.95622
G1 X124.606 Y102.72 E23.00205
G1 X126.155 Y103.577 E23.06093
G1 X127.847 Y104.779 E23.12996
G1 X128.879 Y105.692 E23.17579
G1 X130.192 Y107.119 E23.24029
G1 X131.228 Y108.531 E23.29853
G1 X132.034 Y109.911 E23.35169
G1 X132.886 Y111.826 E23.4214
G1 X133.308 Y113.142 E23.46737
G1 X133.722 Y115.119 E23.53455
G1 X133.886 Y116.803 E23.59082
G1 X133.901 Y117.688 E23.62026
G1 X133.873 Y118.462 E23.64602
G1 X133.664 Y120.257 E23.70613
G1 X133.331 Y121.771 E23.75769
G1 X132.797 Y123.396 E23.81458
G1 X131.918 Y125.315 E23.88478
G1 X131.232 Y126.466 E23.92935
G1 X130.046 Y128.059 E23.9954
G1 X128.993 Y129.198 E24.047
G1 X127.634 Y130.391 E24.10714
G1 X126.037 Y131.501 E24.17183
G1 X124.767 Y132.199 E24.22003
G1 X122.766 Y133.029 E24.29208
G1 X121.523 Y133.396 E24.33519
G1 X119.41 Y133.787 E24.40666
G1 X118.084 Y133.888 E24.45089
G1 X117.269 Y133.9 E24.478
G1 X116.409 Y133.865 E24.50663
G1 X114.139 Y133.548 E24.58286
G1 X112.745 Y133.192 E24.63071
G1 X111.162 Y132.618 E24.68672
G1 X109.314 Y131.709 E24.75521
G1 X108.286 Y131.064 E24.79558
G1 X106.54 Y129.689 E24.8695
G1 X105.311 Y128.471 E24.92705
G1 X104.431 Y127.404 E24.97305
G1 X103.251 Y125.604 E25.04463
G1 X102.5 Y124.124 E25.09983
G1 X101.99 Y122.82 E25.1464
G1 X101.422 Y120.708 E25.21915
G1 X101.214 Y119.379 E25.26389
G1 X101.111 Y117.316 E25.33259
G1 X101.221 Y115.59 E25.39011
G1 X101.539 Y113.734 E25.45274
G1 X101.873 Y112.527 E25.4944
G1 X102.675 Y110.5 E25.5669
G1 X103.362 Y109.2 E25.6158
G1 X104.49 Y107.517 E25.68319
G1 X105.349 Y106.488 E25.72777
G0 F6000 X105.627 Y106.776
G1 F900 X107.172 Y105.285 E25.79919
G1 X108.181 Y104.5 E25.84171
G1 X109.966 Y103.393 E25.91157
G1 X111.378 Y102.724 E25.96353
G1 X112.867 Y102.19 E26.01615
G1 X114.836 Y101.728 E26.08341
G1 X116.451 Y101.535 E26.13751
G1 X117.624 Y101.5 E26.17654
G1 X118.204 Y101.517 E26.19584
G1 X119.435 Y101.618 E26.23692
G1 X121.5 Y102.014 E26.30686
G1 X123.182 Y102.544 E26.36551
G1 X124.448 Y103.088 E26.41134
G1 X125.924 Y103.903 E26.46742
G1 X127.582 Y105.079 E26.53503
G1 X128.614 Y105.992 E26.58086
G1 X129.869 Y107.356 E26.64251
G1 X130.905 Y108.768 E26.70075
G1 X131.688 Y110.112 E26.75249
G1 X132.505 Y111.949 E26.81936
G1 X132.916 Y113.224 E26.86391
G1 X133.33 Y115.201 E26.93109
G1 X133.486 Y116.81 E26.98486
G1 X133.501 Y117.674 E27.0136
G1 X133.473 Y118.448 E27.03936
G1 X133.273 Y120.171 E27.09705
G1 X132.94 Y121.685 E27.14861
G1 X132.433 Y123.23 E27.2027
G1 X131.574 Y125.11 E27.27144
G1 X130.888 Y126.261 E27.31601
G1 X129.752 Y127.787 E27.37928
G1 X128.699 Y128.926 E27.43088
G1 X127.405 Y130.063 E27.48817
G1 X125.844 Y131.15 E27.55144
G1 X124.574 Y131.848 E27.59964
G1 X122.653 Y132.645 E27.66881
G1 X121.41 Y133.012 E27.71192
G1 X119.379 Y133.388 E27.78061
G1 X118.078 Y133.488 E27.82401
G1 X117.285 Y133.5 E27.85039
G1 X116.425 Y133.465 E27.87902
