;FLAVOR:Marlin
;TIME:2029
;Filament used: 0.978869m
;Layer height: 0.2
;MINX:105
;MINY:104.997
;MINZ:0.2
;MAXX:129.999
;MAXY:130.003
;MAXZ:20
;TARGET_MACHINE.NAME:Creality Ender-3
;Generated with Cura_SteamEngine 5.6.0
M140 S65
M105
M190 S65
M104 S210
M105
M109 S210
M82 ;absolute extrusion mode
; Ender 3 Custom Start G-code
G92 E0 ; Reset Extruder
G28 ; Home all axes
G1 Z2.0 F3000 ; Move Z Axis up little to prevent scratching of Heat Bed
G1 X0.1 Y20 Z0.3 F5000.0 ; Move to start position
G1 X0.1 Y200.0 Z0.3 F1500.0 E15 ; Draw the first line
G1 X0.4 Y200.0 Z0.3 F5000.0 ; Move to side a little
G1 X0.4 Y20 Z0.3 F1500.0 E30 ; Draw the second line
G92 E0 ; Reset Extruder
G1 Z2.0 F3000 ; Move Z Axis up little to prevent scratching of Heat Bed
G1 X5 Y20 Z0.3 F5000.0 ; Move over to prevent blob squish
G92 E0
G92 E0
G1 F2700 E-5
;LAYER_COUNT:100
;LAYER:0
M107
G0 F6000 X112.203 Y113.052 Z0.2
;TYPE:SKIRT
G1 F2700 E0
G1 F1200 X113.954 Y112.561 E0.06048
G1 X115.705 Y113.052 E0.12097
G1 X116.969 Y114.386 E0.18209
G1 X117.081 Y114.772 E0.19546
G1 X117.152 Y114.875 E0.19962
G1 X117.273 Y114.916 E0.20387
G1 X117.521 Y114.916 E0.21212
G1 X117.64 Y114.877 E0.21628
G1 X117.713 Y114.772 E0.22054
G1 X117.832 Y114.361 E0.23477
G1 X119.095 Y113.027 E0.29587
G1 X120.846 Y112.536 E0.35635
G1 X122.597 Y113.027 E0.41684
G1 X123.86 Y114.361 E0.47794
G1 X124.35 Y116.037 E0.53602
G1 X123.859 Y117.79 E0.59657
G1 X122.597 Y119.052 E0.65593
G1 X120.845 Y119.543 E0.71644
G1 X120.126 Y119.332 E0.74137
G1 X120.001 Y119.336 E0.74553
G1 X119.929 Y119.383 E0.74839
G1 X119.791 Y119.521 E0.75488
G1 X119.734 Y119.632 E0.75903
G1 X119.74 Y119.718 E0.76189
G1 X120.181 Y121.227 E0.81418
G1 X119.69 Y122.98 E0.87473
G1 X118.428 Y124.242 E0.93409
G1 X116.675 Y124.733 E0.99464
G1 X115.001 Y124.243 E1.05265
G1 X113.663 Y122.905 E1.11559
G1 X113.171 Y121.229 E1.17369
G1 X113.625 Y119.68 E1.22737
G1 X113.621 Y119.555 E1.23153
G1 X113.489 Y119.432 E1.23753
G1 X112.278 Y119.078 E1.2795
G1 X110.94 Y117.74 E1.34243
G1 X110.448 Y116.064 E1.40053
G1 X110.94 Y114.386 E1.45869
G1 X112.203 Y113.052 E1.51979
G0 F6000 X112.418 Y113.407
G1 F1200 X113.954 Y112.976 E1.57285
G1 X115.49 Y113.407 E1.62591
G1 X116.612 Y114.591 E1.68016
G1 X116.697 Y114.884 E1.69031
G1 X116.795 Y115.079 E1.69757
G1 X116.956 Y115.226 E1.70482
G1 X117.159 Y115.305 E1.71207
G1 X117.273 Y115.316 E1.71588
G1 X117.521 Y115.316 E1.72412
G1 X117.736 Y115.276 E1.7314
G1 X117.922 Y115.163 E1.73864
G1 X118.055 Y114.99 E1.74589
G1 X118.097 Y114.883 E1.74972
G1 X118.189 Y114.567 E1.76066
G1 X119.31 Y113.382 E1.81492
G1 X120.846 Y112.951 E1.86798
G1 X122.382 Y113.382 E1.92104
G1 X123.503 Y114.567 E1.97529
G1 X123.934 Y116.04 E2.02634
G1 X123.502 Y117.581 E2.07957
G1 X122.388 Y118.695 E2.13197
G1 X120.848 Y119.127 E2.18517
G1 X120.239 Y118.948 E2.20628
G1 X120.022 Y118.926 E2.21353
G1 X119.811 Y118.983 E2.2208
G1 X119.646 Y119.1 E2.22753
G1 X119.508 Y119.238 E2.23402
G1 X119.384 Y119.417 E2.24126
G1 X119.333 Y119.63 E2.24855
G1 X119.356 Y119.83 E2.25525
G1 X119.765 Y121.229 E2.30372
G1 X119.333 Y122.771 E2.35699
G1 X118.219 Y123.885 E2.40938
G1 X116.678 Y124.317 E2.46261
G1 X115.212 Y123.888 E2.51342
G1 X114.018 Y122.694 E2.56958
G1 X113.589 Y121.229 E2.62035
G1 X114.009 Y119.793 E2.67012
G1 X114.031 Y119.576 E2.67737
G1 X113.974 Y119.365 E2.68464
G1 X113.846 Y119.189 E2.69188
G1 X113.601 Y119.048 E2.70128
G1 X112.489 Y118.723 E2.73981
G1 X111.295 Y117.529 E2.79597
G1 X110.866 Y116.064 E2.84675
G1 X111.297 Y114.591 E2.89779
G1 X112.418 Y113.407 E2.95202
G0 F6000 X112.632 Y113.762
G1 F1200 X113.954 Y113.392 E2.99768
G1 X115.276 Y113.762 E3.04334
G1 X116.255 Y114.796 E3.0907
G1 X116.313 Y114.995 E3.0976
G1 X116.429 Y115.252 E3.10698
G1 X116.613 Y115.467 E3.11639
G1 X116.849 Y115.621 E3.12576
G1 X117.118 Y115.704 E3.13512
G1 X117.273 Y115.716 E3.14029
G1 X117.521 Y115.716 E3.14854
G1 X117.8 Y115.676 E3.15792
G1 X118.057 Y115.56 E3.1673
G1 X118.272 Y115.377 E3.17669
G1 X118.426 Y115.141 E3.18606
G1 X118.481 Y114.995 E3.19125
G1 X118.546 Y114.77 E3.19904
G1 X119.524 Y113.737 E3.24635
G1 X120.846 Y113.367 E3.29201
G1 X122.168 Y113.737 E3.33767
G1 X123.146 Y114.77 E3.38498
G1 X123.518 Y116.043 E3.42909
G1 X123.145 Y117.372 E3.475
G1 X122.179 Y118.338 E3.52044
G1 X120.851 Y118.711 E3.56632
G1 X120.351 Y118.564 E3.58365
G1 X120.072 Y118.524 E3.59303
G1 X119.793 Y118.563 E3.6024
G1 X119.535 Y118.679 E3.61181
G1 X119.363 Y118.817 E3.61914
G1 X119.225 Y118.955 E3.62563
G1 X119.056 Y119.181 E3.63502
G1 X118.956 Y119.445 E3.64441
G1 X118.934 Y119.726 E3.65378
G1 X118.972 Y119.942 E3.66108
G1 X119.349 Y121.232 E3.70578
G1 X118.976 Y122.562 E3.75172
G1 X118.01 Y123.528 E3.79716
G1 X116.681 Y123.901 E3.84307
G1 X115.423 Y123.533 E3.88666
G1 X114.373 Y122.483 E3.93605
G1 X114.005 Y121.229 E3.97952
G1 X114.393 Y119.905 E4.02541
G1 X114.433 Y119.626 E4.03478
G1 X114.394 Y119.346 E4.04419
G1 X114.278 Y119.089 E4.05356
G1 X114.095 Y118.874 E4.06295
G1 X113.859 Y118.719 E4.07235
G1 X113.714 Y118.664 E4.0775
G1 X112.699 Y118.367 E4.11268
G1 X111.65 Y117.318 E4.16202
G1 X111.282 Y116.064 E4.20549
G1 X111.654 Y114.796 E4.24944
G1 X112.632 Y113.762 E4.29678
G0 F6000 X112.848 Y114.117
G1 F1200 X113.954 Y113.807 E4.33498
G1 X115.062 Y114.118 E4.37326
G1 X115.898 Y115 E4.41367
G1 X115.929 Y115.107 E4.41738
G1 X116.06 Y115.414 E4.42848
G1 X116.26 Y115.682 E4.4396
G1 X116.517 Y115.895 E4.45071
G1 X116.818 Y116.04 E4.46182
G1 X117.273 Y116.116 E4.47716
G1 X117.521 Y116.116 E4.48541
G1 X117.853 Y116.076 E4.49653
G1 X118.165 Y115.959 E4.50761
G1 X118.442 Y115.771 E4.51875
G1 X118.665 Y115.523 E4.52984
G1 X118.865 Y115.106 E4.54522
G1 X118.903 Y114.976 E4.54973
G1 X119.74 Y114.092 E4.59022
G1 X120.846 Y113.782 E4.62842
G1 X121.952 Y114.092 E4.66663
G1 X122.789 Y114.976 E4.70712
G1 X123.102 Y116.046 E4.7442
G1 X122.789 Y117.162 E4.78275
G1 X121.969 Y117.982 E4.82132
G1 X120.852 Y118.295 E4.8599
G1 X120.464 Y118.181 E4.87335
G1 X120.135 Y118.125 E4.88445
G1 X119.801 Y118.15 E4.89559
G1 X119.483 Y118.253 E4.90671
G1 X119.08 Y118.534 E4.92305
G1 X118.942 Y118.672 E4.92954
G1 X118.736 Y118.935 E4.94065
G1 X118.597 Y119.239 E4.95177
G1 X118.535 Y119.567 E4.96287
G1 X118.588 Y120.054 E4.97916
G1 X118.933 Y121.235 E5.02009
G1 X118.62 Y122.352 E5.05867
G1 X117.8 Y123.172 E5.09724
G1 X116.684 Y123.485 E5.13579
G1 X115.633 Y123.177 E5.17222
G1 X114.727 Y122.271 E5.21483
G1 X114.422 Y121.229 E5.25094
G1 X114.777 Y120.017 E5.29295
G1 X114.832 Y119.688 E5.30404
G1 X114.807 Y119.355 E5.31515
G1 X114.704 Y119.037 E5.32627
G1 X114.529 Y118.753 E5.33736
G1 X114.291 Y118.518 E5.34849
G1 X114.005 Y118.346 E5.35959
G1 X113.826 Y118.28 E5.36593
G1 X112.91 Y118.012 E5.39768
G1 X112.004 Y117.106 E5.44029
G1 X111.699 Y116.064 E5.4764
G1 X112.01 Y115.002 E5.51321
G1 X112.848 Y114.117 E5.55374
G0 F6000 X113.062 Y114.472
G1 F1200 X113.954 Y114.222 E5.58456
G1 X114.847 Y114.473 E5.61541
G1 X115.541 Y115.206 E5.64898
G1 X115.545 Y115.219 E5.64943
G1 X115.688 Y115.57 E5.66204
G1 X115.902 Y115.882 E5.67462
G1 X116.177 Y116.144 E5.68726
G1 X116.5 Y116.342 E5.69986
G1 X116.857 Y116.467 E5.71244
G1 X117.273 Y116.516 E5.72637
G1 X117.521 Y116.516 E5.73462
G1 X117.898 Y116.476 E5.74723
G1 X118.258 Y116.358 E5.75983
G1 X118.585 Y116.168 E5.77241
G1 X118.866 Y115.913 E5.78503
G1 X119.086 Y115.604 E5.79764
G1 X119.25 Y115.218 E5.81159
G1 X119.261 Y115.179 E5.81294
G1 X119.954 Y114.447 E5.84647
G1 X120.846 Y114.197 E5.87728
G1 X121.738 Y114.447 E5.90809
G1 X122.432 Y115.18 E5.94166
G1 X122.686 Y116.048 E5.97174
G1 X122.432 Y116.953 E6.00301
G1 X121.76 Y117.625 E6.03462
G1 X120.855 Y117.879 E6.06588
G1 X120.577 Y117.797 E6.07552
G1 X120.204 Y117.729 E6.08813
G1 X119.825 Y117.741 E6.10074
G1 X119.457 Y117.832 E6.11335
G1 X119.116 Y117.997 E6.12595
G1 X118.797 Y118.251 E6.13951
G1 X118.659 Y118.389 E6.146
G1 X118.421 Y118.684 E6.15861
G1 X118.25 Y119.022 E6.17121
G1 X118.153 Y119.388 E6.1838
G1 X118.135 Y119.767 E6.19642
G1 X118.204 Y120.167 E6.20992
G1 X118.517 Y121.238 E6.24703
G1 X118.263 Y122.143 E6.2783
G1 X117.591 Y122.815 E6.30991
G1 X116.686 Y123.069 E6.34117
G1 X115.844 Y122.822 E6.37036
G1 X115.083 Y122.061 E6.40615
G1 X114.838 Y121.228 E6.43503
G1 X115.16 Y120.13 E6.47309
G1 X115.228 Y119.757 E6.4857
G1 X115.216 Y119.378 E6.49831
G1 X115.125 Y119.01 E6.51092
G1 X114.959 Y118.67 E6.5235
G1 X114.726 Y118.371 E6.53611
G1 X114.435 Y118.128 E6.54872
G1 X113.938 Y117.896 E6.56696
G1 X113.121 Y117.657 E6.59527
G1 X112.36 Y116.896 E6.63107
G1 X112.115 Y116.063 E6.65995
G1 X112.367 Y115.207 E6.68963
G1 X113.062 Y114.472 E6.72327
G0 F6000 X113.277 Y114.827
G1 F1200 X113.954 Y114.638 E6.74665
G1 X114.633 Y114.828 E6.7701
G1 X115.198 Y115.425 E6.79744
G1 X115.315 Y115.72 E6.808
G1 X115.541 Y116.073 E6.82194
G1 X115.83 Y116.377 E6.83589
G1 X116.171 Y116.62 E6.84981
G1 X116.552 Y116.795 E6.86376
G1 X116.959 Y116.894 E6.87769
G1 X117.273 Y116.916 E6.88816
G1 X117.521 Y116.916 E6.89641
G1 X117.938 Y116.876 E6.91034
G1 X118.34 Y116.758 E6.92428
G1 X118.712 Y116.565 E6.93822
G1 X119.041 Y116.306 E6.95214
G1 X119.315 Y115.989 E6.96608
G1 X119.524 Y115.626 E6.98001
G1 X119.611 Y115.392 E6.98831
G1 X120.169 Y114.802 E7.01532
G1 X120.846 Y114.613 E7.0387
G1 X121.523 Y114.802 E7.06208
G1 X122.075 Y115.386 E7.08881
G1 X122.27 Y116.051 E7.11186
G1 X122.076 Y116.743 E7.13576
G1 X121.55 Y117.269 E7.1605
G1 X120.858 Y117.463 E7.1844
G1 X120.689 Y117.413 E7.19027
G1 X120.278 Y117.334 E7.20419
G1 X119.859 Y117.334 E7.21812
G1 X119.447 Y117.414 E7.23208
G1 X119.058 Y117.57 E7.24602
G1 X118.706 Y117.798 E7.25997
G1 X118.514 Y117.968 E7.2685
G1 X118.376 Y118.106 E7.27499
G1 X118.11 Y118.43 E7.28893
G1 X117.909 Y118.797 E7.30285
G1 X117.782 Y119.197 E7.31681
G1 X117.733 Y119.613 E7.33074
G1 X117.763 Y120.031 E7.34468
G1 X117.82 Y120.279 E7.35314
G1 X118.101 Y121.241 E7.38648
G1 X117.907 Y121.933 E7.41038
G1 X117.381 Y122.459 E7.43512
G1 X116.69 Y122.653 E7.45899
G1 X116.055 Y122.467 E7.481
G1 X115.437 Y121.849 E7.51007
G1 X115.255 Y121.228 E7.53159
G1 X115.544 Y120.242 E7.56577
G1 X115.623 Y119.831 E7.57969
G1 X115.623 Y119.412 E7.59362
G1 X115.543 Y119 E7.60758
G1 X115.386 Y118.612 E7.6215
G1 X115.159 Y118.26 E7.63543
G1 X114.869 Y117.957 E7.64938
G1 X114.527 Y117.715 E7.66332
G1 X114.05 Y117.512 E7.68056
G1 X113.332 Y117.302 E7.70544
G1 X112.714 Y116.684 E7.73451
G1 X112.532 Y116.064 E7.756
G1 X112.724 Y115.412 E7.77861
G1 X113.277 Y114.827 E7.80538
G0 F6000 X113.491 Y115.183
G1 F1200 X113.954 Y115.053 E7.82138
G1 X114.419 Y115.183 E7.83744
G1 X114.855 Y115.644 E7.85854
G1 X114.942 Y115.867 E7.8665
G1 X115.178 Y116.256 E7.88164
G1 X115.48 Y116.598 E7.89681
G1 X115.836 Y116.883 E7.91198
G1 X116.236 Y117.1 E7.92711
G1 X116.668 Y117.245 E7.94227
G1 X117.273 Y117.316 E7.96253
G1 X117.521 Y117.316 E7.97078
G1 X117.975 Y117.276 E7.98594
G1 X118.415 Y117.158 E8.00109
G1 X118.827 Y116.964 E8.01624
G1 X119.2 Y116.701 E8.03142
G1 X119.521 Y116.378 E8.04656
G1 X119.78 Y116.003 E8.06172
G1 X119.94 Y115.626 E8.07534
G1 X120.383 Y115.158 E8.09677
G1 X120.846 Y115.028 E8.11277
G1 X121.309 Y115.158 E8.12876
G1 X121.718 Y115.59 E8.14855
G1 X121.853 Y116.052 E8.16456
G1 X121.717 Y116.538 E8.18135
G1 X121.345 Y116.91 E8.19884
G1 X120.86 Y117.046 E8.2156
G1 X120.802 Y117.029 E8.21761
G1 X120.355 Y116.94 E8.23277
G1 X119.899 Y116.93 E8.24794
G1 X119.449 Y116.999 E8.26308
G1 X119.018 Y117.146 E8.27822
G1 X118.619 Y117.367 E8.29339
G1 X118.232 Y117.686 E8.31008
G1 X118.094 Y117.824 E8.31657
G1 X117.801 Y118.173 E8.33172
G1 X117.574 Y118.568 E8.34688
G1 X117.419 Y118.996 E8.36202
G1 X117.341 Y119.445 E8.37717
G1 X117.343 Y119.901 E8.39234
G1 X117.436 Y120.391 E8.40893
G1 X117.684 Y121.242 E8.43841
G1 X117.548 Y121.728 E8.45519
G1 X117.176 Y122.1 E8.47269
G1 X116.689 Y122.237 E8.48952
G1 X116.264 Y122.112 E8.50425
G1 X115.794 Y121.642 E8.52636
G1 X115.672 Y121.228 E8.54072
G1 X115.928 Y120.355 E8.57097
G1 X116.017 Y119.908 E8.58613
G1 X116.027 Y119.452 E8.6013
G1 X115.958 Y119.002 E8.61645
G1 X115.81 Y118.571 E8.6316
G1 X115.59 Y118.172 E8.64676
G1 X115.303 Y117.818 E8.66191
G1 X114.959 Y117.519 E8.67707
G1 X114.568 Y117.285 E8.69223
G1 X114.162 Y117.128 E8.70671
G1 X113.54 Y116.946 E8.72826
G1 X113.071 Y116.477 E8.75032
G1 X112.949 Y116.063 E8.76468
G1 X113.08 Y115.616 E8.78017
G1 X113.491 Y115.183 E8.80003
G0 F6000 X113.705 Y115.539
G1 F1200 X113.954 Y115.469 E8.80863
G1 X114.205 Y115.539 E8.8173
G1 X114.51 Y115.861 E8.83205
G1 X114.567 Y116.011 E8.83739
G1 X114.814 Y116.434 E8.85368
G1 X115.126 Y116.811 E8.86995
G1 X115.495 Y117.133 E8.88624
G1 X115.912 Y117.389 E8.90252
G1 X116.365 Y117.575 E8.9188
G1 X116.842 Y117.685 E8.93509
G1 X117.273 Y117.716 E8.94946
G1 X117.521 Y117.716 E8.95771
G1 X117.673 Y117.704 E8.96278
G1 X117.494 Y117.914 E8.97196
G1 X117.242 Y118.334 E8.98825
G1 X117.062 Y118.789 E9.00452
G1 X116.958 Y119.267 E9.02079
G1 X116.933 Y119.756 E9.03708
G1 X116.989 Y120.242 E9.05335
G1 X117.052 Y120.503 E9.06228
G1 X117.268 Y121.244 E9.08795
G1 X117.192 Y121.518 E9.09741
G1 X116.966 Y121.744 E9.10804
G1 X116.692 Y121.821 E9.1175
G1 X116.475 Y121.757 E9.12503
G1 X116.149 Y121.431 E9.14036
G1 X116.089 Y121.227 E9.14744
G1 X116.312 Y120.467 E9.17378
G1 X116.411 Y119.988 E9.19005
G1 X116.43 Y119.499 E9.20632
G1 X116.37 Y119.013 E9.22261
G1 X116.232 Y118.543 E9.2389
G1 X116.019 Y118.103 E9.25516
G1 X115.737 Y117.702 E9.27147
G1 X115.394 Y117.353 E9.28774
G1 X114.998 Y117.065 E9.30403
G1 X114.561 Y116.844 E9.32032
G1 X114.275 Y116.744 E9.33039
G1 X113.751 Y116.591 E9.34855
G1 X113.426 Y116.266 E9.36384
G1 X113.366 Y116.064 E9.37084
G1 X113.437 Y115.822 E9.37923
G1 X113.705 Y115.539 E9.3922
G0 F6000 X113.919 Y115.894
G1 F1200 X113.954 Y115.884 E9.39341
G1 X113.991 Y115.895 E9.39469
G1 X114.163 Y116.076 E9.403
G1 X114.192 Y116.154 E9.40576
G1 X114.293 Y116.334 E9.41263
G1 X113.963 Y116.237 E9.42407
G1 X113.785 Y116.059 E9.43244
G1 X113.794 Y116.026 E9.43358
G1 X113.919 Y115.894 E9.43963
G1 F2700 E4.43963
G0 F6000 X116.414 Y117.998
G1 F2700 E9.43963
G1 F1200 X116.552 Y118.039 E9.44441
G1 X116.925 Y118.079 E9.45689
G1 X116.914 Y118.096 E9.45756
G1 X116.71 Y118.576 E9.47491
G1 X116.687 Y118.666 E9.478
G1 X116.651 Y118.526 E9.48281
G1 X116.445 Y118.047 E9.50015
G1 X116.414 Y117.998 E9.50208
G1 F2700 E4.50208
G0 F6000 X116.677 Y120.645
G1 F2700 E9.50208
G1 F1200 X116.853 Y121.247 E9.52294
G1 X116.835 Y121.309 E9.52509
G1 X116.757 Y121.387 E9.52876
G1 X116.694 Y121.405 E9.53094
G1 X116.686 Y121.402 E9.53122
G1 X116.508 Y121.224 E9.53959
G1 X116.677 Y120.645 E9.55965
G1 F2700 E4.55965
G0 F6000 X119.897 Y116.533
G1 F2700 E9.55965
G1 F1200 X120.013 Y116.387 E9.56586
G1 X120.251 Y115.959 E9.58214
G1 X120.3 Y115.828 E9.5868
G1 X120.597 Y115.514 E9.60117
G1 X120.846 Y115.444 E9.60977
G1 X121.095 Y115.514 E9.61838
G1 X121.361 Y115.795 E9.63125
G1 X121.437 Y116.055 E9.64026
G1 X121.361 Y116.328 E9.64968
G1 X121.135 Y116.554 E9.66031
G1 X120.854 Y116.633 E9.67002
G1 X120.435 Y116.546 E9.68425
G1 X119.946 Y116.527 E9.70053
G1 X119.897 Y116.533 E9.70217
G0 F6000 X120.579 Y116.167
G1 F1200 X120.618 Y116.073 E9.70556
G1 X120.811 Y115.869 E9.7149
G1 X120.846 Y115.859 E9.71611
G1 X120.881 Y115.869 E9.71732
G1 X121.006 Y116.001 E9.72336
G1 X121.022 Y116.056 E9.72527
G1 X121.004 Y116.119 E9.72745
G1 X120.926 Y116.197 E9.73112
G1 X120.839 Y116.222 E9.73413
G1 X120.579 Y116.167 E9.74297
G1 F2700 E4.74297
;MESH:Guia_Furo_Alma_Motor_De_Teste.STL
G0 F6000 X118.37 Y126.492
G0 X117.181 Y127.794
;TYPE:WALL-INNER
G1 F2700 E9.74297
G1 F1200 X115.824 Y127.663 E9.78831
G1 X114.604 Y127.383 E9.82994
