;FLAVOR:Marlin
;TIME:2281
;Filament used: 1.44359m
;Layer height: 0.2
;MINX:75.064
;MINY:73.263
;MINZ:0.2
;MAXX:100.063
;MAXY:98.269
;MAXZ:20
;TARGET_MACHINE.NAME:Creality Ender-3
;Generated with Cura_SteamEngine 5.6.0
M140 S80
M105
M190 S80
M104 S240
M105
M109 S240
M82 ;absolute extrusion mode
; Ender 3 Custom Start G-code
G92 E0 ; Reset Extruder
G28 ; Home all axes
G1 Z2.0 F3000 ; Move Z Axis up little to prevent scratching of Heat Bed
G1 X0.1 Y20 Z0.3 F5000.0 ; Move to start position
G1 X0.1 Y200.0 Z0.3 F1500.0 E15 ; Draw the first line
G1 X0.4 Y200.0 Z0.3 F5000.0 ; Move to side a little
G1 X0.4 Y20 Z0.3 F1500.0 E30 ; Draw the second line
G92 E0 ; Reset Extruder
G1 Z2.0 F3000 ; Move Z Axis up little to prevent scratching of Heat Bed
G1 X5 Y20 Z0.3 F5000.0 ; Move over to prevent blob squish
G92 E0
G92 E0
G1 F2700 E-5
;LAYER_COUNT:100
;LAYER:0
M107
G0 F6000 X83.931 Y80.313 Z0.2
;TYPE:SKIRT
G1 F2700 E0
G1 F900 X85.194 Y78.979 E0.0611
G1 X86.945 Y78.488 E0.12159
G1 X88.696 Y78.979 E0.18207
G1 X89.96 Y80.313 E0.24319
G1 X90.096 Y80.783 E0.25947
G1 X90.166 Y80.886 E0.26361
G1 X90.342 Y80.92 E0.26957
G1 X91.057 Y80.719 E0.29427
G1 X92.809 Y81.211 E0.3548
G1 X94.072 Y82.545 E0.4159
G1 X94.562 Y84.221 E0.47398
G1 X94.071 Y85.974 E0.53453
G1 X92.809 Y87.236 E0.59389
G1 X91.606 Y87.573 E0.63544
G1 X91.502 Y87.643 E0.63961
G1 X91.468 Y87.822 E0.64567
G1 X91.954 Y89.484 E0.70326
G1 X91.463 Y91.237 E0.76381
G1 X90.201 Y92.499 E0.82317
G1 X88.448 Y92.99 E0.88372
G1 X86.774 Y92.5 E0.94173
G1 X85.555 Y91.282 E0.99905
G1 X85.444 Y91.225 E1.0032
G1 X85.36 Y91.23 E1.006
G1 X84.449 Y91.485 E1.03746
G1 X82.775 Y90.995 E1.09548
G1 X81.437 Y89.657 E1.15841
G1 X80.945 Y87.981 E1.21651
G1 X81.437 Y86.303 E1.27467
G1 X82.7 Y84.969 E1.33577
G1 X84.348 Y84.506 E1.3927
G1 X84.452 Y84.436 E1.39687
G1 X84.494 Y84.318 E1.40104
G1 X84.436 Y84.172 E1.40626
G1 X83.931 Y83.666 E1.43004
G1 X83.439 Y81.991 E1.4881
G1 X83.931 Y80.313 E1.54626
G0 F6000 X84.288 Y80.518
G1 F900 X85.409 Y79.334 E1.60049
G1 X86.945 Y78.903 E1.65356
G1 X88.481 Y79.334 E1.70662
G1 X89.603 Y80.519 E1.76089
G1 X89.712 Y80.894 E1.77388
G1 X89.81 Y81.089 E1.78114
G1 X89.971 Y81.236 E1.78839
G1 X90.174 Y81.316 E1.79565
G1 X90.45 Y81.305 E1.80484
G1 X91.057 Y81.134 E1.82581
G1 X92.594 Y81.566 E1.87891
G1 X93.715 Y82.751 E1.93317
G1 X94.146 Y84.224 E1.98421
G1 X93.714 Y85.765 E2.03744
G1 X92.6 Y86.879 E2.08984
G1 X91.498 Y87.188 E2.12791
G1 X91.302 Y87.284 E2.13517
G1 X91.154 Y87.444 E2.14242
G1 X91.072 Y87.647 E2.1497
G1 X91.084 Y87.934 E2.15925
G1 X91.538 Y89.487 E2.21307
G1 X91.106 Y91.028 E2.2663
G1 X89.992 Y92.142 E2.3187
G1 X88.451 Y92.574 E2.37193
G1 X86.985 Y92.145 E2.42273
G1 X85.838 Y90.999 E2.47666
G1 X85.658 Y90.875 E2.48393
G1 X85.446 Y90.824 E2.49118
G1 X85.252 Y90.845 E2.49767
G1 X84.452 Y91.069 E2.5253
G1 X82.986 Y90.64 E2.57611
G1 X81.792 Y89.446 E2.63227
G1 X81.363 Y87.981 E2.68304
G1 X81.794 Y86.508 E2.73409
G1 X82.915 Y85.324 E2.78832
G1 X84.456 Y84.891 E2.84156
G1 X84.652 Y84.794 E2.84883
G1 X84.801 Y84.635 E2.85608
G1 X84.882 Y84.432 E2.86335
G1 X84.886 Y84.214 E2.8706
G1 X84.811 Y84.009 E2.87786
G1 X84.719 Y83.889 E2.88289
G1 X84.286 Y83.455 E2.90328
G1 X83.857 Y81.991 E2.95402
G1 X84.288 Y80.518 E3.00507
G0 F6000 X84.645 Y80.723
G1 F900 X85.623 Y79.689 E3.0524
G1 X86.945 Y79.319 E3.09806
G1 X88.267 Y79.689 E3.14372
G1 X89.246 Y80.723 E3.19108
G1 X89.328 Y81.006 E3.20088
G1 X89.444 Y81.263 E3.21026
G1 X89.627 Y81.477 E3.21963
G1 X89.863 Y81.632 E3.22902
G1 X90.133 Y81.715 E3.23841
G1 X90.415 Y81.719 E3.24779
G1 X90.558 Y81.69 E3.25265
G1 X91.057 Y81.55 E3.26988
G1 X92.38 Y81.921 E3.31558
G1 X93.358 Y82.954 E3.3629
G1 X93.73 Y84.227 E3.40701
G1 X93.357 Y85.556 E3.45292
G1 X92.39 Y86.523 E3.4984
G1 X91.39 Y86.803 E3.53294
G1 X91.132 Y86.917 E3.54232
G1 X90.916 Y87.098 E3.5517
G1 X90.759 Y87.333 E3.5611
G1 X90.674 Y87.602 E3.57048
G1 X90.667 Y87.884 E3.57986
G1 X90.7 Y88.046 E3.58536
G1 X91.122 Y89.49 E3.6354
G1 X90.749 Y90.819 E3.68131
G1 X89.783 Y91.785 E3.72675
G1 X88.454 Y92.158 E3.77266
G1 X87.195 Y91.789 E3.81629
G1 X86.121 Y90.716 E3.86679
G1 X85.895 Y90.546 E3.87619
G1 X85.631 Y90.447 E3.88557
G1 X85.35 Y90.425 E3.89495
G1 X85.145 Y90.46 E3.90186
G1 X84.456 Y90.653 E3.92566
G1 X83.197 Y90.285 E3.96929
G1 X82.147 Y89.235 E4.01868
G1 X81.779 Y87.981 E4.06214
G1 X82.151 Y86.713 E4.10609
G1 X83.129 Y85.679 E4.15343
G1 X84.565 Y85.276 E4.20304
G1 X84.823 Y85.162 E4.21242
G1 X85.039 Y84.98 E4.22181
G1 X85.195 Y84.746 E4.23117
G1 X85.28 Y84.477 E4.24055
G1 X85.287 Y84.195 E4.24993
G1 X85.214 Y83.922 E4.25933
G1 X85.002 Y83.607 E4.27196
G1 X84.641 Y83.246 E4.28894
G1 X84.273 Y81.991 E4.33244
G1 X84.645 Y80.723 E4.37639
G0 F6000 X85.001 Y80.929
G1 F900 X85.839 Y80.044 E4.41693
G1 X86.945 Y79.734 E4.45513
G1 X88.053 Y80.045 E4.49341
G1 X88.887 Y80.925 E4.53373
G1 X88.943 Y81.117 E4.54039
G1 X89.074 Y81.425 E4.55152
G1 X89.274 Y81.692 E4.56261
G1 X89.532 Y81.905 E4.57374
G1 X89.832 Y82.051 E4.58484
G1 X90.159 Y82.121 E4.59596
G1 X90.493 Y82.112 E4.60707
G1 X90.667 Y82.075 E4.61299
G1 X91.058 Y81.965 E4.6265
G1 X92.164 Y82.276 E4.66471
G1 X93.001 Y83.16 E4.7052
G1 X93.314 Y84.23 E4.74228
G1 X93.001 Y85.346 E4.78083
G1 X92.181 Y86.166 E4.8194
G1 X91.282 Y86.418 E4.85046
G1 X90.973 Y86.546 E4.86158
G1 X90.704 Y86.743 E4.87267
G1 X90.489 Y86.999 E4.88379
G1 X90.34 Y87.298 E4.8949
G1 X90.267 Y87.624 E4.90601
G1 X90.273 Y87.958 E4.91712
G1 X90.316 Y88.159 E4.92396
G1 X90.706 Y89.493 E4.97019
G1 X90.393 Y90.609 E5.00874
G1 X89.573 Y91.429 E5.04731
G1 X88.457 Y91.742 E5.08586
G1 X87.406 Y91.434 E5.12228
G1 X86.404 Y90.433 E5.16939
G1 X86.141 Y90.226 E5.18052
G1 X85.837 Y90.088 E5.19163
G1 X85.508 Y90.026 E5.20276
G1 X85.037 Y90.075 E5.21851
G1 X84.459 Y90.237 E5.23848
G1 X83.407 Y89.929 E5.27494
G1 X82.501 Y89.023 E5.31755
G1 X82.196 Y87.981 E5.35366
G1 X82.507 Y86.919 E5.39047
G1 X83.345 Y86.034 E5.43101
G1 X84.673 Y85.661 E5.47688
G1 X84.981 Y85.533 E5.48798
G1 X85.251 Y85.335 E5.49911
G1 X85.466 Y85.079 E5.51023
G1 X85.614 Y84.78 E5.52133
G1 X85.687 Y84.454 E5.53244
G1 X85.681 Y84.12 E5.54355
G1 X85.595 Y83.797 E5.55467
G1 X85.436 Y83.503 E5.56579
G1 X85.285 Y83.324 E5.57358
G1 X84.995 Y83.034 E5.58722
G1 X84.69 Y81.991 E5.62336
G1 X85.001 Y80.929 E5.66016
G0 F6000 X85.358 Y81.134
G1 F900 X86.053 Y80.399 E5.69381
G1 X86.945 Y80.149 E5.72462
G1 X87.838 Y80.4 E5.75547
G1 X88.531 Y81.131 E5.78897
G1 X88.559 Y81.229 E5.79236
G1 X88.703 Y81.579 E5.80495
G1 X88.916 Y81.892 E5.81754
G1 X89.191 Y82.154 E5.83018
G1 X89.514 Y82.352 E5.84278
G1 X89.871 Y82.478 E5.85537
G1 X90.247 Y82.527 E5.86798
G1 X90.775 Y82.46 E5.88568
G1 X91.057 Y82.381 E5.89542
G1 X91.95 Y82.632 E5.92628
G1 X92.644 Y83.364 E5.95983
G1 X92.898 Y84.232 E5.98991
G1 X92.644 Y85.137 E6.02117
G1 X91.972 Y85.809 E6.05278
G1 X91.174 Y86.033 E6.08035
G1 X90.822 Y86.173 E6.09295
G1 X90.507 Y86.384 E6.10556
G1 X90.243 Y86.656 E6.11816
G1 X90.042 Y86.977 E6.13076
G1 X89.913 Y87.333 E6.14335
G1 X89.861 Y87.708 E6.15595
G1 X89.932 Y88.271 E6.17482
G1 X90.29 Y89.495 E6.21724
G1 X90.036 Y90.4 E6.2485
G1 X89.364 Y91.072 E6.28011
G1 X88.459 Y91.326 E6.31137
G1 X87.616 Y91.079 E6.34059
G1 X86.686 Y90.15 E6.38431
G1 X86.392 Y89.912 E6.39689
G1 X86.053 Y89.74 E6.40953
G1 X85.687 Y89.644 E6.42212
G1 X85.308 Y89.626 E6.43474
G1 X84.929 Y89.69 E6.44752
G1 X84.461 Y89.821 E6.46369
G1 X83.618 Y89.574 E6.4929
G1 X82.857 Y88.813 E6.5287
G1 X82.612 Y87.98 E6.55758
G1 X82.864 Y87.124 E6.58726
G1 X83.559 Y86.389 E6.6209
G1 X84.781 Y86.046 E6.66312
G1 X85.133 Y85.906 E6.67572
G1 X85.34 Y85.768 E6.68399
G1 X85.355 Y85.976 E6.69093
G1 X85.462 Y86.339 E6.70351
G1 X85.643 Y86.673 E6.71615
G1 X85.817 Y86.888 E6.72535
G1 X86.185 Y87.278 E6.74318
G1 X86.472 Y87.525 E6.75578
G1 X86.805 Y87.706 E6.76838
G1 X87.169 Y87.813 E6.781
G1 X87.547 Y87.842 E6.79361
G1 X87.987 Y87.774 E6.80842
G1 X88.342 Y87.673 E6.82069
G1 X88.693 Y87.532 E6.83328
G1 X89.007 Y87.32 E6.84588
G1 X89.27 Y87.047 E6.85849
G1 X89.47 Y86.725 E6.87109
G1 X89.598 Y86.368 E6.88371
G1 X89.648 Y85.993 E6.89629
G1 X89.576 Y85.433 E6.91507
G1 X89.442 Y84.978 E6.93084
G1 X89.297 Y84.628 E6.94345
G1 X89.082 Y84.316 E6.95605
G1 X88.807 Y84.056 E6.96863
G1 X88.483 Y83.859 E6.98125
G1 X88.125 Y83.734 E6.99386
G1 X87.749 Y83.687 E7.00646
G1 X87.227 Y83.754 E7.02397
G1 X86.638 Y83.92 E7.04432
G1 X86.286 Y84.061 E7.05693
G1 X86.08 Y84.199 E7.06518
G1 X86.065 Y83.992 E7.07208
G1 X85.959 Y83.628 E7.08469
G1 X85.778 Y83.295 E7.0973
G1 X85.568 Y83.041 E7.10826
G1 X85.351 Y82.823 E7.11849
G1 X85.106 Y81.99 E7.14737
G1 X85.358 Y81.134 E7.17705
G0 F6000 X85.715 Y81.339
G1 F900 X86.268 Y80.754 E7.20382
G1 X86.945 Y80.565 E7.2272
G1 X87.624 Y80.755 E7.25065
G1 X88.174 Y81.335 E7.27724
G1 X88.175 Y81.34 E7.27741
G1 X88.33 Y81.73 E7.29136
G1 X88.555 Y82.083 E7.30529
G1 X88.844 Y82.387 E7.31924
G1 X89.185 Y82.63 E7.33316
G1 X89.566 Y82.805 E7.34711
G1 X89.973 Y82.904 E7.36104
G1 X90.391 Y82.925 E7.37496
G1 X90.883 Y82.845 E7.39154
G1 X91.057 Y82.796 E7.39755
G1 X91.735 Y82.986 E7.42097
G1 X92.287 Y83.57 E7.4477
G1 X92.482 Y84.235 E7.47075
G1 X92.288 Y84.927 E7.49465
G1 X91.762 Y85.453 E7.51939
G1 X91.066 Y85.648 E7.54343
G1 X90.675 Y85.799 E7.55737
G1 X90.32 Y86.021 E7.5713
G1 X90.016 Y86.305 E7.58514
G1 X90.025 Y86.269 E7.58637
G1 X90.047 Y85.85 E7.60033
G1 X89.959 Y85.32 E7.6182
G1 X89.825 Y84.865 E7.63397
G1 X89.669 Y84.477 E7.64788
G1 X89.442 Y84.124 E7.66184
G1 X89.153 Y83.822 E7.67574
G1 X88.811 Y83.579 E7.6897
G1 X88.429 Y83.406 E7.70364
G1 X88.022 Y83.308 E7.71757
G1 X87.603 Y83.29 E7.73152
G1 X87.118 Y83.369 E7.74786
G1 X86.529 Y83.535 E7.76821
G1 X86.364 Y83.599 E7.7741
G1 X86.303 Y83.416 E7.78052
G1 X86.096 Y83.051 E7.79447
G1 X85.851 Y82.759 E7.80715
G1 X85.706 Y82.614 E7.81397
G1 X85.523 Y81.991 E7.83557
G1 X85.715 Y81.339 E7.85817
G0 F6000 X86.071 Y81.543
G1 F900 X86.482 Y81.11 E7.87803
G1 X86.945 Y80.98 E7.89402
G1 X87.41 Y81.11 E7.91008
G1 X87.831 Y81.555 E7.93046
G1 X87.956 Y81.876 E7.94192
G1 X88.192 Y82.266 E7.95708
G1 X88.493 Y82.608 E7.97223
G1 X88.849 Y82.892 E7.98738
G1 X89.249 Y83.11 E8.00253
G1 X89.681 Y83.255 E8.01769
G1 X90.132 Y83.322 E8.03285
G1 X90.587 Y83.31 E8.04799
G1 X90.991 Y83.23 E8.06169
G1 X91.057 Y83.211 E8.06397
G1 X91.521 Y83.342 E8.08001
G1 X91.93 Y83.774 E8.09979
G1 X92.065 Y84.236 E8.1158
G1 X91.929 Y84.722 E8.13259
G1 X91.556 Y85.095 E8.15013
G1 X90.958 Y85.263 E8.17079
G1 X90.532 Y85.423 E8.18593
G1 X90.402 Y85.5 E8.19095
G1 X90.343 Y85.207 E8.20089
G1 X90.209 Y84.752 E8.21667
G1 X90.043 Y84.328 E8.23181
G1 X89.805 Y83.94 E8.24695
G1 X89.502 Y83.599 E8.26213
G1 X89.145 Y83.316 E8.27728
G1 X88.744 Y83.099 E8.29244
G1 X88.312 Y82.956 E8.30758
G1 X87.861 Y82.891 E8.32273
G1 X87.405 Y82.905 E8.33791
G1 X87.01 Y82.984 E8.3513
G1 X86.589 Y83.103 E8.36586
G1 X86.39 Y82.774 E8.37864
G1 X86.134 Y82.476 E8.39171
G1 X86.062 Y82.404 E8.3951
G1 X85.94 Y81.99 E8.40945
G1 X86.071 Y81.543 E8.42495
G0 F6000 X86.428 Y81.749
G1 F900 X86.696 Y81.466 E8.43791
G1 X86.945 Y81.396 E8.44651
G1 X87.196 Y81.466 E8.45518
G1 X87.487 Y81.774 E8.46927
G1 X87.581 Y82.02 E8.47803
G1 X87.827 Y82.443 E8.49431
G1 X87.875 Y82.501 E8.49681
G1 X87.648 Y82.488 E8.50437
G1 X87.161 Y82.539 E8.52066
G1 X86.901 Y82.599 E8.52953
G1 X86.77 Y82.636 E8.53406
G1 X86.658 Y82.466 E8.54083
G1 X86.417 Y82.194 E8.55292
G1 X86.357 Y81.991 E8.55996
G1 X86.428 Y81.749 E8.56835
G0 F6000 X86.785 Y81.953
G1 F900 X86.91 Y81.821 E8.57439
G1 X86.945 Y81.811 E8.57561
G1 X86.982 Y81.822 E8.57689
G1 X87.142 Y81.99 E8.58461
G1 X87.197 Y82.138 E8.58986
G1 X86.94 Y82.186 E8.59855
G1 X86.899 Y82.129 E8.60089
G1 X86.775 Y81.994 E8.60698
G1 X86.785 Y81.953 E8.60839
G1 F2700 E3.60839
G0 F6000 X90.129 Y83.713
G1 F2700 E8.60839
G1 F900 X90.343 Y83.726 E8.61552
G1 X90.83 Y83.678 E8.6318
G1 X91.053 Y83.626 E8.63941
G1 X91.306 Y83.697 E8.64815
G1 X91.573 Y83.979 E8.66107
G1 X91.649 Y84.239 E8.67008
G1 X91.573 Y84.512 E8.6795
G1 X91.347 Y84.738 E8.69013
G1 X90.85 Y84.877 E8.7073
G1 X90.682 Y84.94 E8.71326
G1 X90.593 Y84.639 E8.7237
G1 X90.417 Y84.183 E8.73996
G1 X90.169 Y83.761 E8.75624
G1 X90.129 Y83.713 E8.75832
G0 F6000 X90.805 Y84.075
G1 F900 X91.026 Y84.033 E8.7658
G1 X91.092 Y84.052 E8.76809
G1 X91.218 Y84.185 E8.77418
G1 X91.234 Y84.24 E8.77608
G1 X91.216 Y84.303 E8.77826
G1 X91.138 Y84.381 E8.78193
G1 X90.943 Y84.436 E8.78867
G1 X90.805 Y84.075 E8.80153
G1 F2700 E3.80153
G0 F6000 X89.493 Y87.402
G1 F2700 E8.80153
G1 F900 X89.486 Y87.431 E8.80252
G1 X89.462 Y87.849 E8.81644
G1 X89.548 Y88.383 E8.83443
G1 X89.874 Y89.498 E8.87307
G1 X89.68 Y90.19 E8.89697
G1 X89.154 Y90.716 E8.92172
G1 X88.463 Y90.91 E8.94559
G1 X87.826 Y90.723 E8.96767
G1 X86.969 Y89.867 E9.00796
G1 X86.646 Y89.6 E9.02189
G1 X86.278 Y89.4 E9.03582
G1 X85.878 Y89.273 E9.04978
G1 X85.462 Y89.224 E9.06371
G1 X85.044 Y89.254 E9.07765
G1 X84.821 Y89.304 E9.08525
G1 X84.463 Y89.404 E9.09762
G1 X83.829 Y89.219 E9.11958
G1 X83.211 Y88.601 E9.14865
G1 X83.029 Y87.981 E9.17014
G1 X83.221 Y87.329 E9.19275
G1 X83.774 Y86.744 E9.21952
G1 X84.889 Y86.431 E9.25804
G1 X85.055 Y86.367 E9.26396
G1 X85.118 Y86.552 E9.27046
G1 X85.325 Y86.916 E9.28439
G1 X85.526 Y87.163 E9.29498
G1 X85.894 Y87.553 E9.31281
G1 X86.209 Y87.829 E9.32674
G1 X86.571 Y88.04 E9.34068
G1 X86.967 Y88.179 E9.35464
G1 X87.381 Y88.24 E9.36856
G1 X87.8 Y88.222 E9.38251
G1 X88.096 Y88.159 E9.39257
G1 X88.451 Y88.058 E9.40485
G1 X88.841 Y87.905 E9.41878
G1 X89.196 Y87.682 E9.43273
G1 X89.493 Y87.402 E9.4463
G0 F6000 X89.107 Y88.207
G1 F900 X89.164 Y88.495 E9.45607
G1 X89.457 Y89.499 E9.49085
G1 X89.321 Y89.985 E9.50764
G1 X88.949 Y90.357 E9.52514
G1 X88.462 Y90.494 E9.54196
G1 X88.038 Y90.37 E9.55665
G1 X87.252 Y89.584 E9.59363
G1 X86.902 Y89.291 E9.60881
G1 X86.507 Y89.064 E9.62396
G1 X86.079 Y88.909 E9.6391
G1 X85.63 Y88.832 E9.65425
G1 X85.174 Y88.834 E9.66942
G1 X84.713 Y88.919 E9.68501
G1 X84.464 Y88.989 E9.69361
G1 X84.038 Y88.864 E9.70838
G1 X83.568 Y88.394 E9.73049
G1 X83.446 Y87.98 E9.74484
G1 X83.577 Y87.533 E9.76033
G1 X83.988 Y87.099 E9.78021
G1 X84.831 Y86.863 E9.80933
G1 X85.031 Y87.193 E9.82217
G1 X85.235 Y87.437 E9.83274
G1 X85.603 Y87.827 E9.85058
G1 X85.943 Y88.13 E9.86573
G1 X86.332 Y88.369 E9.88091
G1 X86.755 Y88.536 E9.89604
G1 X87.202 Y88.627 E9.91121
G1 X87.657 Y88.638 E9.92635
G1 X88.205 Y88.544 E9.94484
G1 X88.56 Y88.443 E9.95711
G1 X88.986 Y88.28 E9.97229
G1 X89.107 Y88.207 E9.97699
G0 F6000 X88.827 Y88.768
G1 F900 X89.041 Y89.502 E10.00241
G1 X88.965 Y89.775 E10.01184
G1 X88.739 Y90.001 E10.02247
G1 X88.465 Y90.078 E10.03194
G1 X88.248 Y90.014 E10.03946
G1 X87.534 Y89.301 E10.07302
G1 X87.202 Y89.019 E10.08751
G1 X87.501 Y89.043 E10.09749
G1 X87.989 Y89.002 E10.11378
G1 X88.315 Y88.928 E10.12489
G1 X88.67 Y88.827 E10.13717
G1 X88.827 Y88.768 E10.14275
G0 F6000 X88.558 Y89.275
G1 F900 X88.625 Y89.505 E10.15072
G1 X88.608 Y89.566 E10.15282
G1 X88.53 Y89.644 E10.15649
G1 X88.467 Y89.662 E10.15867
G1 X88.459 Y89.659 E10.15895
G1 X88.163 Y89.364 E10.17285
G1 X88.424 Y89.313 E10.1817
G1 X88.558 Y89.275 E10.18633
G1 F2700 E5.18633
G0 F6000 X85.699 Y88.444
G1 F2700 E10.18633
G1 F900 X85.319 Y88.425 E10.19899
G1 X84.606 Y88.534 E10.22298
G1 X84.467 Y88.573 E10.22778
G1 X84.249 Y88.509 E10.23533
G1 X83.923 Y88.183 E10.25067
G1 X83.863 Y87.981 E10.25768
G1 X83.934 Y87.739 E10.26607
G1 X84.203 Y87.455 E10.27908
G1 X84.649 Y87.329 E10.29449
G1 X84.763 Y87.502 E10.30138
G1 X84.944 Y87.712 E10.3106
G1 X85.312 Y88.102 E10.32844
G1 X85.676 Y88.429 E10.34471
G1 X85.699 Y88.444 E10.34563
G0 F6000 X84.756 Y88.095
