;FLAVOR:Marlin
;TIME:4465
;Filament used: 2.74395m
;Layer height: 0.2
;MINX:88.667
;MINY:61.148
;MINZ:0.2
;MAXX:143.924
;MAXY:182.396
;MAXZ:20
;TARGET_MACHINE.NAME:Creality Ender-3
;Generated with Cura_SteamEngine 5.6.0
M140 S65
M105
M190 S65
M104 S210
M105
M109 S210
M82 ;absolute extrusion mode
; Ender 3 Custom Start G-code
G92 E0 ; Reset Extruder
G28 ; Home all axes
G1 Z2.0 F3000 ; Move Z Axis up little to prevent scratching of Heat Bed
G1 X0.1 Y20 Z0.3 F5000.0 ; Move to start position
G1 X0.1 Y200.0 Z0.3 F1500.0 E15 ; Draw the first line
G1 X0.4 Y200.0 Z0.3 F5000.0 ; Move to side a little
G1 X0.4 Y20 Z0.3 F1500.0 E30 ; Draw the second line
G92 E0 ; Reset Extruder
G1 Z2.0 F3000 ; Move Z Axis up little to prevent scratching of Heat Bed
G1 X5 Y20 Z0.3 F5000.0 ; Move over to prevent blob squish
G92 E0
G92 E0
G1 F2700 E-5
;LAYER_COUNT:100
;LAYER:0
M107
G0 F6000 X91.105 Y169.098 Z0.2
;TYPE:SKIRT
G1 F2700 E0
G1 F1200 X92.66 Y168.661 E0.05372
G1 X94.215 Y169.098 E0.10745
G1 X95.305 Y170.246 E0.1601
G1 X95.415 Y170.305 E0.16425
G1 X95.504 Y170.301 E0.16721
G1 X95.657 Y170.258 E0.1725
G1 X95.785 Y170.294 E0.17692
G1 X95.91 Y170.288 E0.18108
G1 X96.026 Y170.171 E0.18656
G1 X96.082 Y170.02 E0.19192
G1 X96.359 Y169.698 E0.20605
G1 X96.7 Y169.575 E0.2181
G1 X97.02 Y169.662 E0.22913
G1 X97.252 Y169.936 E0.24108
G1 X97.334 Y170.306 E0.25368
G1 X97.186 Y170.807 E0.27106
G1 X96.919 Y171.078 E0.28371
G1 X96.587 Y171.175 E0.29521
G1 X96.48 Y171.145 E0.29891
G1 X96.355 Y171.151 E0.30307
G1 X96.285 Y171.197 E0.30586
G1 X95.99 Y171.492 E0.31973
G1 X95.956 Y171.501 E0.3209
G1 X95.851 Y171.57 E0.32508
G1 X95.815 Y171.64 E0.3277
G1 X95.34 Y173.334 E0.38622
G1 X94.217 Y174.457 E0.43904
G1 X92.658 Y174.893 E0.49288
G1 X91.169 Y174.458 E0.54447
G1 X89.979 Y173.268 E0.60045
G1 X89.541 Y171.777 E0.65213
G1 X89.977 Y170.286 E0.7038
G1 X91.105 Y169.098 E0.75829
G0 F6000 X91.319 Y169.453
G1 F1200 X92.66 Y169.077 E0.80461
G1 X94.001 Y169.453 E0.85093
G1 X95.015 Y170.521 E0.89991
G1 X95.191 Y170.649 E0.90715
G1 X95.402 Y170.706 E0.91442
G1 X95.612 Y170.686 E0.92144
G1 X95.657 Y170.673 E0.923
G1 X95.677 Y170.679 E0.92369
G1 X95.894 Y170.698 E0.93094
G1 X96.104 Y170.639 E0.93819
G1 X96.279 Y170.509 E0.94544
G1 X96.401 Y170.311 E0.95318
G1 X96.433 Y170.226 E0.9562
G1 X96.593 Y170.04 E0.96436
G1 X96.718 Y169.994 E0.96879
G1 X96.795 Y170.015 E0.97144
G1 X96.882 Y170.118 E0.97593
G1 X96.921 Y170.293 E0.98189
G1 X96.831 Y170.597 E0.99244
G1 X96.707 Y170.723 E0.99832
G1 X96.581 Y170.759 E1.00267
G1 X96.369 Y170.741 E1.00975
G1 X96.159 Y170.8 E1.01701
G1 X96.002 Y170.914 E1.02346
G1 X95.755 Y171.161 E1.03508
G1 X95.655 Y171.209 E1.03877
G1 X95.505 Y171.368 E1.04604
G1 X95.43 Y171.532 E1.05203
G1 X94.983 Y173.125 E1.10706
G1 X94.008 Y174.1 E1.15293
G1 X92.661 Y174.477 E1.19945
G1 X91.38 Y174.103 E1.24383
G1 X90.334 Y173.057 E1.29303
G1 X89.958 Y171.776 E1.33744
G1 X90.334 Y170.49 E1.382
G1 X91.319 Y169.453 E1.42957
G0 F6000 X91.532 Y169.809
G1 F1200 X92.66 Y169.492 E1.46854
G1 X93.787 Y169.809 E1.50748
G1 X94.725 Y170.797 E1.55279
G1 X94.946 Y170.972 E1.56217
G1 X95.207 Y171.078 E1.57154
G1 X95.228 Y171.08 E1.57224
G1 X95.111 Y171.252 E1.57916
G1 X95.045 Y171.424 E1.58529
G1 X94.627 Y172.915 E1.63679
G1 X93.798 Y173.744 E1.67578
G1 X92.664 Y174.061 E1.71495
G1 X91.591 Y173.748 E1.75212
G1 X90.69 Y172.847 E1.7945
G1 X90.375 Y171.776 E1.83163
G1 X90.692 Y170.694 E1.86913
G1 X91.532 Y169.809 E1.90971
G0 F6000 X91.747 Y170.164
G1 F1200 X92.66 Y169.907 E1.94126
G1 X93.573 Y170.164 E1.97281
G1 X94.435 Y171.072 E2.01445
G1 X94.679 Y171.274 E2.02499
G1 X94.66 Y171.316 E2.02652
G1 X94.27 Y172.706 E2.07454
G1 X93.589 Y173.387 E2.10657
G1 X92.667 Y173.645 E2.13841
G1 X91.802 Y173.393 E2.16838
G1 X91.043 Y172.634 E2.20408
G1 X90.792 Y171.777 E2.23378
G1 X91.048 Y170.9 E2.26417
G1 X91.747 Y170.164 E2.29793
G0 F6000 X91.961 Y170.519
G1 F1200 X92.66 Y170.323 E2.32207
G1 X93.359 Y170.519 E2.34622
G1 X94.145 Y171.347 E2.38419
G1 X94.218 Y171.41 E2.3874
G1 X93.914 Y172.496 E2.42491
G1 X93.38 Y173.03 E2.45002
G1 X92.669 Y173.229 E2.47458
G1 X92.012 Y173.037 E2.49735
G1 X91.398 Y172.423 E2.52623
G1 X91.209 Y171.777 E2.54861
G1 X91.405 Y171.105 E2.5719
G1 X91.961 Y170.519 E2.59876
G0 F6000 X92.177 Y170.874
G1 F1200 X92.66 Y170.738 E2.61545
G1 X93.144 Y170.874 E2.63217
G1 X93.769 Y171.532 E2.66236
G1 X93.557 Y172.287 E2.68844
G1 X93.172 Y172.672 E2.70655
G1 X92.67 Y172.813 E2.72389
G1 X92.223 Y172.682 E2.73938
G1 X91.753 Y172.212 E2.76149
G1 X91.626 Y171.777 E2.77656
G1 X91.761 Y171.312 E2.79267
G1 X92.177 Y170.874 E2.81276
G0 F6000 X92.391 Y171.229
G1 F1200 X92.66 Y171.154 E2.82205
G1 X92.93 Y171.229 E2.83137
G1 X93.322 Y171.643 E2.85033
G1 X93.2 Y172.08 E2.86542
G1 X92.965 Y172.315 E2.87648
G1 X92.673 Y172.397 E2.88656
G1 X92.431 Y172.326 E2.89495
G1 X92.11 Y172.005 E2.91005
G1 X92.043 Y171.776 E2.91799
G1 X92.119 Y171.516 E2.927
G1 X92.391 Y171.229 E2.94015
G0 F6000 X92.605 Y171.585
G1 F1200 X92.66 Y171.569 E2.94205
G1 X92.714 Y171.584 E2.94392
G1 X92.876 Y171.755 E2.95175
G1 X92.843 Y171.871 E2.95576
G1 X92.755 Y171.959 E2.9599
G1 X92.676 Y171.981 E2.96263
G1 X92.642 Y171.971 E2.96381
G1 X92.465 Y171.794 E2.97213
G1 X92.459 Y171.774 E2.97283
G1 X92.474 Y171.722 E2.97463
G1 X92.605 Y171.585 E2.98093
G1 F2700 E-2.01907
G0 F6000 X95.267 Y168.851
G1 F2700 E2.98093
G1 F1200 X95.062 Y168.646 E2.99057
G1 X94.977 Y168.359 E3.00053
G1 X95.075 Y167.993 E3.01313
G1 X95.1 Y167.942 E3.01502
G1 X95.112 Y167.91 E3.01616
G1 X95.18 Y167.674 E3.02433
G1 X95.204 Y167.65 E3.02546
G1 X95.822 Y167.649 E3.04601
G1 X95.845 Y167.673 E3.04712
G1 X95.913 Y167.908 E3.05525
G1 X95.927 Y167.942 E3.05648
G1 X95.954 Y167.994 E3.05842
G1 X96.049 Y168.36 E3.071
G1 X95.965 Y168.66 E3.08136
G1 X95.774 Y168.851 E3.09035
G1 X95.512 Y168.923 E3.09938
G1 X95.267 Y168.851 E3.10788
G0 F6000 X95.478 Y168.496
G1 F1200 X95.416 Y168.434 E3.11079
G1 X95.392 Y168.354 E3.11357
G1 X95.451 Y168.136 E3.12108
G1 X95.46 Y168.117 E3.12178
G1 X95.486 Y168.05 E3.12417
G1 X95.541 Y168.049 E3.126
G1 X95.57 Y168.123 E3.12865
G1 X95.578 Y168.138 E3.12921
G1 X95.634 Y168.356 E3.1367
G1 X95.607 Y168.452 E3.14001
G1 X95.565 Y168.494 E3.14199
G1 X95.518 Y168.507 E3.14361
G1 X95.478 Y168.496 E3.14499
G0 F6000 X96.71 Y168.358
G1 F1200 X96.807 Y167.993 E3.15755
G1 X96.832 Y167.942 E3.15944
G1 X96.845 Y167.911 E3.16056
G1 X96.916 Y167.671 E3.16888
G1 X96.937 Y167.649 E3.1699
G1 X97.555 Y167.648 E3.19045
G1 X97.579 Y167.673 E3.1916
G1 X97.65 Y167.92 E3.20015
G1 X97.72 Y168.024 E3.20432
G1 X97.838 Y168.065 E3.20848
G1 X97.982 Y168.008 E3.21363
G1 X98.155 Y167.838 E3.22169
G1 X98.653 Y167.72 E3.23872
G1 X98.752 Y167.663 E3.24252
G1 X98.767 Y167.647 E3.24325
G1 X99.386 Y167.647 E3.26383
G1 X99.408 Y167.67 E3.26489
G1 X99.46 Y167.851 E3.27116
G1 X99.435 Y167.944 E3.27436
G1 X99.434 Y168.048 E3.27782
G1 X99.537 Y168.444 E3.29143
G1 X99.432 Y168.768 E3.30276
G1 X99.152 Y169.012 E3.31511
G1 X98.684 Y169.127 E3.33114
G1 X98.213 Y168.989 E3.34746
G1 X97.918 Y168.714 E3.36087
G1 X97.805 Y168.661 E3.36503
G1 X97.641 Y168.718 E3.3708
G1 X97.508 Y168.849 E3.37701
G1 X97.245 Y168.922 E3.38609
G1 X97 Y168.85 E3.39458
G1 X96.795 Y168.645 E3.40422
G1 X96.71 Y168.358 E3.41418
G0 F6000 X97.126 Y168.354
G1 F1200 X97.184 Y168.133 E3.42178
G1 X97.191 Y168.119 E3.4223
G1 X97.219 Y168.049 E3.42481
G1 X97.274 Y168.048 E3.42664
G1 X97.363 Y168.226 E3.43326
G1 X97.496 Y168.348 E3.43926
G1 X97.36 Y168.433 E3.44459
G1 X97.3 Y168.492 E3.44739
G1 X97.25 Y168.506 E3.44912
G1 X97.211 Y168.495 E3.45047
G1 X97.149 Y168.433 E3.45338
G1 X97.126 Y168.354 E3.45612
G0 F6000 X98.135 Y168.385
G1 F1200 X98.149 Y168.38 E3.45661
G1 X98.262 Y168.293 E3.46136
G1 X98.355 Y168.202 E3.46568
G1 X98.746 Y168.109 E3.47905
G1 X98.886 Y168.047 E3.48414
G1 X99.048 Y168.047 E3.48953
G1 X99.047 Y168.149 E3.49293
G1 X99.12 Y168.43 E3.50258
G1 X99.085 Y168.54 E3.50642
G1 X98.964 Y168.645 E3.51175
G1 X98.692 Y168.712 E3.52107
G1 X98.417 Y168.632 E3.53059
G1 X98.191 Y168.421 E3.54088
G1 X98.135 Y168.385 E3.54309
G1 F2700 E-1.45691
G0 F6000 X100.274 Y168.356
G1 F2700 E3.54309
G1 F1200 X100.363 Y168.02 E3.55465
G1 X100.507 Y167.851 E3.56204
G1 X100.547 Y167.778 E3.5648
G1 X100.58 Y167.668 E3.56862
G1 X100.601 Y167.646 E3.56964
G1 X101.217 Y167.645 E3.59012
G1 X101.242 Y167.671 E3.59132
G1 X101.294 Y167.848 E3.59746
G1 X101.267 Y167.947 E3.60087
G1 X101.267 Y168.051 E3.60433
G1 X101.347 Y168.354 E3.61475
G1 X101.262 Y168.655 E3.62516
G1 X100.895 Y169.022 E3.64242
G1 X100.839 Y169.133 E3.64655
G1 X100.892 Y169.301 E3.65241
G1 X101.269 Y169.699 E3.67065
G1 X101.379 Y169.758 E3.6748
G1 X101.461 Y169.755 E3.67753
G1 X101.646 Y169.71 E3.68386
G1 X101.752 Y169.644 E3.68801
G1 X101.791 Y169.572 E3.69074
G1 X101.933 Y169.089 E3.70748
G1 X102.076 Y168.937 E3.71442
G1 X102.129 Y168.824 E3.71857
G1 X102.122 Y168.743 E3.72128
G1 X102.007 Y168.354 E3.73477
G1 X102.095 Y168.021 E3.74623
G1 X102.24 Y167.85 E3.75368
G1 X102.279 Y167.776 E3.75647
G1 X102.31 Y167.669 E3.76017
G1 X102.334 Y167.644 E3.76132
G1 X102.95 Y167.644 E3.78181
G1 X102.973 Y167.668 E3.78292
G1 X102.998 Y167.753 E3.78586
G1 X103.069 Y167.856 E3.79002
G1 X103.237 Y167.891 E3.79573
G1 X103.946 Y167.721 E3.81998
G1 X104.044 Y167.665 E3.82374
G1 X104.065 Y167.643 E3.82475
G1 X104.684 Y167.642 E3.84534
G1 X104.706 Y167.665 E3.84639
G1 X104.774 Y167.9 E3.85453
G1 X104.788 Y167.935 E3.85579
G1 X104.816 Y167.991 E3.85787
G1 X104.899 Y168.305 E3.86867
G1 X104.967 Y168.41 E3.87283
G1 X105.043 Y168.448 E3.87566
G1 X105.231 Y168.496 E3.88211
G1 X105.355 Y168.487 E3.88625
G1 X105.425 Y168.439 E3.88907
G1 X105.485 Y168.375 E3.89199
G1 X105.592 Y168.31 E3.89615
G1 X105.627 Y168.25 E3.89846
G1 X105.697 Y168.057 E3.90529
G1 X105.764 Y167.983 E3.90861
G1 X105.807 Y167.906 E3.91154
G1 X105.878 Y167.663 E3.91996
G1 X105.898 Y167.642 E3.92093
G1 X106.582 Y167.641 E3.94368
G1 X106.608 Y167.667 E3.9449
G1 X106.665 Y167.849 E3.95124
G1 X106.641 Y167.931 E3.95408
G1 X106.638 Y168.031 E3.95741
G1 X106.702 Y168.321 E3.96729
G1 X106.752 Y168.415 E3.97083
G1 X107.151 Y168.838 E3.99017
G1 X107.344 Y169.501 E4.01314
G1 X107.415 Y169.604 E4.0173
G1 X107.59 Y169.638 E4.02323
G1 X108.859 Y169.283 E4.06706
G1 X110.466 Y169.734 E4.12257
G1 X111.631 Y170.962 E4.17887
G1 X112.079 Y172.5 E4.23215
G1 X111.628 Y174.111 E4.28779
G1 X110.468 Y175.271 E4.34235
G1 X108.857 Y175.722 E4.398
G1 X107.319 Y175.272 E4.4513
G1 X106.085 Y174.039 E4.50932
G1 X105.974 Y173.982 E4.51347
G1 X105.842 Y174.008 E4.51794
G1 X105.622 Y174.138 E4.52644
G1 X105.54 Y174.232 E4.53059
G1 X105.532 Y174.366 E4.53505
G1 X105.831 Y175.394 E4.57066
G1 X105.223 Y177.567 E4.64571
G1 X103.783 Y179.045 E4.71434
G1 X101.796 Y179.624 E4.78318
G1 X99.89 Y179.061 E4.84928
G1 X98.383 Y177.512 E4.92116
G1 X97.824 Y175.517 E4.99007
G1 X97.822 Y175.419 E4.99333
G1 X98.387 Y173.481 E5.06047
G1 X99.441 Y172.369 E5.11143
G1 X99.494 Y172.256 E5.11558
G1 X99.488 Y172.174 E5.11832
G1 X99.393 Y171.852 E5.12948
G1 X99.483 Y171.54 E5.14028
G1 X99.729 Y171.282 E5.15214
G1 X100.056 Y171.19 E5.16344
G1 X100.44 Y171.297 E5.1767
G1 X100.565 Y171.291 E5.18086
G1 X100.636 Y171.245 E5.18367
G1 X100.773 Y171.107 E5.19014
G1 X100.829 Y170.995 E5.19431
G1 X100.823 Y170.91 E5.19714
G1 X100.765 Y170.713 E5.20397
G1 X100.694 Y170.61 E5.20813
G1 X100.629 Y170.577 E5.21056
G1 X100.277 Y170.474 E5.22275
G1 X100.018 Y170.215 E5.23494
G1 X99.926 Y169.901 E5.24582
G1 X100.016 Y169.589 E5.25662
G1 X100.261 Y169.332 E5.26843
G1 X100.547 Y169.253 E5.2783
G1 X100.651 Y169.184 E5.28245
G1 X100.694 Y169.066 E5.28663
G1 X100.636 Y168.919 E5.29188
G1 X100.359 Y168.641 E5.30494
G1 X100.274 Y168.356 E5.31483
G0 F6000 X100.689 Y168.351
G1 F1200 X100.727 Y168.21 E5.31968
G1 X100.812 Y168.11 E5.32405
G1 X100.847 Y168.046 E5.32648
G1 X100.881 Y168.046 E5.32761
G1 X100.88 Y168.153 E5.33117
G1 X100.932 Y168.35 E5.33794
G1 X100.905 Y168.445 E5.34123
G1 X100.817 Y168.534 E5.34539
G1 X100.712 Y168.429 E5.35033
G1 X100.689 Y168.351 E5.35303
G0 F6000 X100.658 Y169.636
G1 F1200 X100.978 Y169.974 E5.36851
G1 X101.155 Y170.102 E5.37578
G1 X101.365 Y170.159 E5.38302
G1 X101.556 Y170.144 E5.38939
G1 X101.654 Y170.12 E5.39275
G1 X101.651 Y170.125 E5.39294
G1 X101.601 Y170.338 E5.40022
G1 X101.624 Y170.537 E5.40688
G1 X101.678 Y170.721 E5.41326
G1 X101.568 Y171.113 E5.4268
G1 X101.549 Y171.331 E5.43408
G1 X101.608 Y171.541 E5.44133
G1 X101.738 Y171.716 E5.44858
G1 X101.984 Y171.854 E5.45796
G1 X103.614 Y172.312 E5.51428
G1 X104.975 Y173.744 E5.57999
G1 X105.151 Y173.872 E5.58722
G1 X105.287 Y173.909 E5.59191
G1 X105.254 Y173.937 E5.59335
G1 X105.152 Y174.129 E5.60058
G1 X105.125 Y174.346 E5.60786
G1 X105.148 Y174.477 E5.61228
G1 X105.415 Y175.396 E5.64411
G1 X104.865 Y177.361 E5.71198
G1 X103.57 Y178.69 E5.77369
G1 X101.795 Y179.208 E5.83519
G1 X100.106 Y178.708 E5.89378
G1 X98.74 Y177.305 E5.95891
G1 X98.225 Y175.465 E6.02246
G1 X98.744 Y173.687 E6.08406
G1 X99.732 Y172.644 E6.13185
G1 X99.85 Y172.461 E6.13909
G1 X99.896 Y172.247 E6.14637
G1 X99.871 Y172.061 E6.15261
G1 X99.809 Y171.851 E6.15989
G1 X99.84 Y171.746 E6.16354
G1 X99.944 Y171.637 E6.16855
G1 X100.057 Y171.605 E6.17245
G1 X100.333 Y171.682 E6.18198
G1 X100.55 Y171.701 E6.18923
G1 X100.76 Y171.642 E6.19648
G1 X100.92 Y171.527 E6.20304
G1 X101.057 Y171.389 E6.2095
G1 X101.18 Y171.209 E6.21676
G1 X101.23 Y170.996 E6.22403
G1 X101.207 Y170.797 E6.2307
G1 X101.149 Y170.6 E6.23753
G1 X101.05 Y170.405 E6.2448
G1 X100.888 Y170.258 E6.25208
G1 X100.741 Y170.193 E6.25742
G1 X100.488 Y170.119 E6.26619
G1 X100.372 Y170.003 E6.27164
G1 X100.342 Y169.9 E6.27521
G1 X100.373 Y169.795 E6.27885
G1 X100.475 Y169.687 E6.28379
G1 X100.654 Y169.638 E6.28997
G1 F2700 E1.28997
G0 F6000 X102.182 Y169.66
G1 F2700 E6.28997
G1 F1200 X102.291 Y169.292 E6.30273
G1 X102.367 Y169.211 E6.30643
G1 X102.485 Y169.028 E6.31367
G1 X102.53 Y168.814 E6.32094
G1 X102.506 Y168.63 E6.32711
G1 X102.423 Y168.348 E6.33689
G1 X102.459 Y168.21 E6.34164
G1 X102.545 Y168.109 E6.34605
G1 X102.58 Y168.044 E6.3485
G1 X102.704 Y168.044 E6.35263
G1 X102.713 Y168.061 E6.35327
G1 X102.874 Y168.207 E6.3605
G1 X103.078 Y168.286 E6.36777
G1 X103.33 Y168.28 E6.37616
G1 X104.039 Y168.11 E6.40041
G1 X104.191 Y168.043 E6.40593
G1 X104.402 Y168.042 E6.41295
G1 X104.431 Y168.116 E6.41559
G1 X104.44 Y168.134 E6.41626
G1 X104.512 Y168.407 E6.42565
G1 X104.6 Y168.593 E6.4325
G1 X104.419 Y168.607 E6.43853
G1 X104.024 Y168.704 E6.45206
G1 X103.65 Y168.598 E6.46499
G1 X103.433 Y168.577 E6.47224
G1 X103.223 Y168.636 E6.4795
G1 X103.06 Y168.754 E6.48619
G1 X102.923 Y168.893 E6.49268
G1 X102.8 Y169.073 E6.49993
G1 X102.751 Y169.286 E6.5072
G1 X102.762 Y169.374 E6.51015
G1 X102.719 Y169.527 E6.51544
G1 X102.627 Y169.619 E6.51976
G1 X102.506 Y169.653 E6.52394
G1 X102.289 Y169.631 E6.5312
G1 X102.182 Y169.66 E6.53489
G1 F2700 E1.53489
G0 F6000 X101.271 Y171.742
G1 F2700 E6.53489
G1 F1200 X101.307 Y171.82 E6.53774
G1 X101.492 Y172.033 E6.54713
G1 X101.729 Y172.185 E6.55649
G1 X101.876 Y172.239 E6.5617
G1 X103.399 Y172.666 E6.61431
G1 X104.685 Y174.02 E6.67642
G1 X104.758 Y174.077 E6.6795
G1 X104.742 Y174.123 E6.68112
G1 X104.729 Y174.405 E6.69051
G1 X104.764 Y174.589 E6.69674
G1 X104.999 Y175.398 E6.72476
G1 X104.508 Y177.155 E6.78543
G1 X103.358 Y178.336 E6.84026
G1 X101.797 Y178.791 E6.89434
G1 X100.319 Y178.354 E6.9456
G1 X99.098 Y177.099 E7.00384
G1 X98.641 Y175.467 E7.06021
G1 X99.101 Y173.891 E7.11481
G1 X100.022 Y172.919 E7.15935
G1 X100.185 Y172.689 E7.16873
G1 X100.278 Y172.422 E7.17813
G1 X100.292 Y172.14 E7.18752
