;FLAVOR:Marlin
;TIME:2416
;Filament used: 1.4867m
;Layer height: 0.2
;MINX:91.213
;MINY:91.213
;MINZ:0.2
;MAXX:143.787
;MAXY:143.787
;MAXZ:10
;TARGET_MACHINE.NAME:Creality Ender-3
;Generated with Cura_SteamEngine 5.6.0
M140 S90
M105
M190 S90
M104 S240
M105
M109 S240
M82 ;absolute extrusion mode
; Ender 3 Custom Start G-code
G92 E0 ; Reset Extruder
G28 ; Home all axes
G1 Z2.0 F3000 ; Move Z Axis up little to prevent scratching of Heat Bed
G1 X0.1 Y20 Z0.3 F5000.0 ; Move to start position
G1 X0.1 Y200.0 Z0.3 F1500.0 E15 ; Draw the first line
G1 X0.4 Y200.0 Z0.3 F5000.0 ; Move to side a little
G1 X0.4 Y20 Z0.3 F1500.0 E30 ; Draw the second line
G92 E0 ; Reset Extruder
G1 Z2.0 F3000 ; Move Z Axis up little to prevent scratching of Heat Bed
G1 X5 Y20 Z0.3 F5000.0 ; Move over to prevent blob squish
G92 E0
G92 E0
G1 F2700 E-5
;LAYER_COUNT:50
;LAYER:0
M107
G0 F6000 X98.209 Y99.633 Z0.2
;TYPE:SKIRT
G1 F2700 E0
G1 F900 X99.729 Y98.121 E0.07131
G1 X102.376 Y95.981 E0.18452
G1 X103.998 Y94.928 E0.24884
G1 X106.791 Y93.49 E0.35333
G1 X109.761 Y92.367 E0.45893
G1 X112.012 Y91.781 E0.5363
G1 X114.585 Y91.368 E0.62297
G1 X117.688 Y91.213 E0.72631
G1 X120.661 Y91.398 E0.82538
G1 X122.575 Y91.701 E0.88983
G1 X126.008 Y92.625 E1.00808
G1 X128.279 Y93.52 E1.08927
G1 X131 Y94.927 E1.19115
G1 X132.658 Y96.006 E1.25694
G1 X135.367 Y98.209 E1.37308
G1 X136.879 Y99.729 E1.44439
G1 X139.019 Y102.376 E1.5576
G1 X140.072 Y103.998 E1.62192
G1 X141.51 Y106.791 E1.7264
G1 X142.633 Y109.761 E1.83201
G1 X143.219 Y112.012 E1.90938
G1 X143.632 Y114.582 E1.99595
G1 X143.787 Y117.687 E2.09935
G1 X143.602 Y120.661 E2.19846
G1 X143.299 Y122.575 E2.26291
G1 X142.382 Y126.004 E2.38097
G1 X141.539 Y128.159 E2.45793
G1 X140.073 Y131 E2.56426
G1 X138.994 Y132.658 E2.63006
G1 X136.791 Y135.367 E2.74619
G1 X135.271 Y136.879 E2.8175
G1 X132.624 Y139.019 E2.93071
G1 X131.002 Y140.072 E2.99503
G1 X128.209 Y141.51 E3.09952
G1 X125.239 Y142.633 E3.20513
G1 X122.988 Y143.219 E3.28249
G1 X120.415 Y143.632 E3.36916
G1 X117.312 Y143.787 E3.4725
G1 X114.339 Y143.602 E3.57157
G1 X112.425 Y143.299 E3.63602
G1 X108.992 Y142.375 E3.75427
G1 X106.721 Y141.48 E3.83546
G1 X103.998 Y140.072 E3.93742
G1 X102.342 Y138.994 E4.00314
G1 X99.633 Y136.791 E4.11927
G1 X98.121 Y135.271 E4.19058
G1 X95.981 Y132.624 E4.30379
G1 X94.927 Y131 E4.36819
G1 X93.488 Y128.207 E4.47269
G1 X92.367 Y125.239 E4.57821
G1 X91.781 Y122.988 E4.65557
G1 X91.368 Y120.415 E4.74225
G1 X91.213 Y117.313 E4.84555
G1 X91.398 Y114.339 E4.94465
G1 X91.701 Y112.425 E5.00911
G1 X92.618 Y108.996 E5.12716
G1 X93.461 Y106.841 E5.20413
G1 X94.927 Y104 E5.31046
G1 X96.006 Y102.342 E5.37625
G1 X98.209 Y99.633 E5.49239
G0 F6000 X98.491 Y99.917
G1 F900 X100.011 Y98.405 E5.5637
G1 X102.594 Y96.317 E5.67417
G1 X104.216 Y95.264 E5.73849
G1 X106.974 Y93.846 E5.84163
G1 X109.862 Y92.754 E5.94432
G1 X112.076 Y92.176 E6.02043
G1 X114.605 Y91.768 E6.10563
G1 X117.708 Y91.613 E6.20897
G1 X120.598 Y91.793 E6.30527
G1 X122.512 Y92.096 E6.36973
G1 X125.861 Y92.997 E6.48508
G1 X128.132 Y93.892 E6.56626
G1 X130.782 Y95.263 E6.6655
G1 X132.406 Y96.317 E6.72989
G1 X135.083 Y98.491 E6.84459
G1 X136.595 Y100.011 E6.9159
G1 X138.683 Y102.594 E7.02637
G1 X139.736 Y104.216 E7.09069
G1 X141.154 Y106.974 E7.19384
G1 X142.246 Y109.862 E7.29653
G1 X142.824 Y112.076 E7.37264
G1 X143.232 Y114.602 E7.45774
G1 X143.387 Y117.707 E7.56114
G1 X143.207 Y120.598 E7.65748
G1 X142.904 Y122.512 E7.72193
G1 X142.009 Y125.858 E7.83714
G1 X141.166 Y128.013 E7.9141
G1 X139.737 Y130.782 E8.01774
G1 X138.683 Y132.406 E8.08213
G1 X136.509 Y135.083 E8.19683
G1 X134.989 Y136.595 E8.26814
G1 X132.406 Y138.683 E8.37861
G1 X130.784 Y139.736 E8.44293
G1 X128.026 Y141.154 E8.54607
G1 X125.138 Y142.246 E8.64877
G1 X122.924 Y142.824 E8.72487
G1 X120.395 Y143.232 E8.81008
G1 X117.292 Y143.387 E8.91341
G1 X114.402 Y143.207 E9.00972
G1 X112.488 Y142.904 E9.07417
G1 X109.139 Y142.003 E9.18952
G1 X106.868 Y141.108 E9.27071
G1 X104.216 Y139.736 E9.37002
G1 X102.594 Y138.683 E9.43434
G1 X99.917 Y136.509 E9.54904
G1 X98.405 Y134.989 E9.62035
G1 X96.317 Y132.406 E9.73082
G1 X95.263 Y130.782 E9.79521
G1 X93.844 Y128.024 E9.89837
G1 X92.754 Y125.138 E10.00098
G1 X92.176 Y122.924 E10.07708
G1 X91.768 Y120.395 E10.16229
G1 X91.613 Y117.293 E10.26559
G1 X91.793 Y114.402 E10.36193
G1 X92.096 Y112.488 E10.42638
G1 X92.991 Y109.142 E10.54158
G1 X93.834 Y106.987 E10.61855
G1 X95.263 Y104.218 E10.72218
G1 X96.317 Y102.594 E10.78658
G1 X98.491 Y99.917 E10.90128
G0 F6000 X98.773 Y100.201
G1 F900 X100.293 Y98.689 E10.97259
G1 X102.812 Y96.653 E11.08031
G1 X104.434 Y95.6 E11.14463
G1 X107.157 Y94.202 E11.24644
G1 X109.963 Y93.141 E11.34622
G1 X112.14 Y92.571 E11.42106
G1 X114.625 Y92.168 E11.50479
G1 X117.728 Y92.013 E11.60813
G1 X120.535 Y92.188 E11.70167
G1 X122.449 Y92.491 E11.76612
G1 X125.714 Y93.369 E11.87858
G1 X127.985 Y94.264 E11.95976
G1 X130.564 Y95.599 E12.05635
G1 X132.188 Y96.653 E12.12075
G1 X134.799 Y98.773 E12.23261
G1 X136.311 Y100.293 E12.30392
G1 X138.347 Y102.812 E12.41165
G1 X139.4 Y104.434 E12.47597
G1 X140.798 Y107.157 E12.57777
G1 X141.859 Y109.963 E12.67755
G1 X142.429 Y112.14 E12.7524
G1 X142.832 Y114.622 E12.83603
G1 X142.987 Y117.727 E12.93943
G1 X142.812 Y120.535 E13.03301
G1 X142.509 Y122.449 E13.09746
G1 X141.636 Y125.712 E13.2098
G1 X140.793 Y127.867 E13.28677
G1 X139.401 Y130.564 E13.38771
G1 X138.347 Y132.188 E13.45211
G1 X136.227 Y134.799 E13.56397
G1 X134.707 Y136.311 E13.63528
G1 X132.188 Y138.347 E13.74301
G1 X130.566 Y139.4 E13.80733
G1 X127.843 Y140.798 E13.90913
G1 X125.037 Y141.859 E14.00891
G1 X122.86 Y142.429 E14.08376
G1 X120.375 Y142.832 E14.16749
G1 X117.272 Y142.987 E14.27082
G1 X114.465 Y142.812 E14.36437
G1 X112.551 Y142.509 E14.42882
G1 X109.286 Y141.631 E14.54127
G1 X107.015 Y140.736 E14.62246
G1 X104.434 Y139.4 E14.71912
G1 X102.812 Y138.347 E14.78344
G1 X100.201 Y136.227 E14.8953
G1 X98.689 Y134.707 E14.96661
G1 X96.653 Y132.188 E15.07434
G1 X95.599 Y130.564 E15.13873
G1 X94.2 Y127.841 E15.24055
G1 X93.141 Y125.037 E15.34025
G1 X92.571 Y122.86 E15.41509
G1 X92.168 Y120.375 E15.49882
G1 X92.013 Y117.273 E15.60213
G1 X92.188 Y114.465 E15.6957
G1 X92.491 Y112.551 E15.76015
G1 X93.364 Y109.288 E15.8725
G1 X94.207 Y107.133 E15.94946
G1 X95.599 Y104.436 E16.05041
G1 X96.653 Y102.812 E16.1148
G1 X98.773 Y100.201 E16.22667
G0 F6000 X99.055 Y100.485
G1 F900 X100.575 Y98.973 E16.29797
G1 X103.03 Y96.989 E16.40296
G1 X104.652 Y95.936 E16.46728
G1 X107.299 Y94.576 E16.56626
G1 X110.065 Y93.528 E16.66464
G1 X112.204 Y92.966 E16.7382
G1 X114.645 Y92.568 E16.82046
G1 X117.748 Y92.413 E16.92379
G1 X120.472 Y92.583 E17.01457
G1 X122.386 Y92.886 E17.07902
G1 X125.567 Y93.741 E17.18858
G1 X127.838 Y94.636 E17.26976
G1 X130.346 Y95.935 E17.36371
G1 X131.97 Y96.989 E17.4281
G1 X134.515 Y99.055 E17.53713
G1 X136.027 Y100.575 E17.60843
G1 X138.011 Y103.03 E17.71342
G1 X139.064 Y104.652 E17.77774
G1 X140.424 Y107.299 E17.87672
G1 X141.472 Y110.065 E17.9751
G1 X142.034 Y112.204 E18.04866
G1 X142.432 Y114.642 E18.13082
G1 X142.587 Y117.747 E18.23422
G1 X142.417 Y120.472 E18.32503
G1 X142.114 Y122.386 E18.38948
G1 X141.263 Y125.566 E18.49897
G1 X140.42 Y127.721 E18.57594
G1 X139.065 Y130.346 E18.67419
G1 X138.011 Y131.97 E18.73858
G1 X135.945 Y134.515 E18.84761
G1 X134.425 Y136.027 E18.91892
G1 X131.97 Y138.011 E19.0239
G1 X130.348 Y139.064 E19.08822
G1 X127.701 Y140.424 E19.1872
G1 X124.935 Y141.472 E19.28558
G1 X122.796 Y142.034 E19.35914
G1 X120.355 Y142.432 E19.4414
G1 X117.252 Y142.587 E19.54473
G1 X114.528 Y142.417 E19.63551
G1 X112.614 Y142.114 E19.69996
G1 X109.433 Y141.259 E19.80952
G1 X107.162 Y140.364 E19.89071
G1 X104.652 Y139.064 E19.98472
G1 X103.03 Y138.011 E20.04904
G1 X100.485 Y135.945 E20.15807
G1 X98.973 Y134.425 E20.22938
G1 X96.989 Y131.97 E20.33436
G1 X95.935 Y130.346 E20.39876
G1 X94.556 Y127.658 E20.49924
G1 X93.528 Y124.935 E20.59604
G1 X92.966 Y122.796 E20.6696
G1 X92.568 Y120.355 E20.75186
G1 X92.413 Y117.253 E20.85516
G1 X92.583 Y114.528 E20.94597
G1 X92.886 Y112.614 E21.01043
G1 X93.737 Y109.434 E21.11992
G1 X94.58 Y107.279 E21.19688
G1 X95.935 Y104.654 E21.29513
G1 X96.989 Y103.03 E21.35953
G1 X99.055 Y100.485 E21.46855
G0 F6000 X99.337 Y100.769
G1 F900 X100.857 Y99.257 E21.53986
G1 X103.248 Y97.325 E21.6421
G1 X104.87 Y96.272 E21.70642
G1 X107.441 Y94.95 E21.80258
G1 X110.167 Y93.915 E21.89956
G1 X112.269 Y93.361 E21.97186
G1 X114.665 Y92.968 E22.05262
G1 X117.768 Y92.813 E22.15595
G1 X120.409 Y92.978 E22.24396
G1 X122.323 Y93.281 E22.30841
G1 X125.42 Y94.113 E22.41507
G1 X127.691 Y95.008 E22.49626
G1 X130.128 Y96.271 E22.58756
G1 X131.752 Y97.325 E22.65195
G1 X134.231 Y99.337 E22.75814
G1 X135.743 Y100.857 E22.82945
G1 X137.675 Y103.248 E22.93169
G1 X138.728 Y104.87 E22.99601
G1 X140.05 Y107.441 E23.09216
G1 X141.085 Y110.167 E23.18915
G1 X141.639 Y112.269 E23.26145
G1 X142.032 Y114.662 E23.3421
G1 X142.187 Y117.767 E23.4455
G1 X142.022 Y120.409 E23.53355
G1 X141.719 Y122.323 E23.598
G1 X140.89 Y125.42 E23.70463
G1 X140.047 Y127.575 E23.7816
G1 X138.729 Y130.128 E23.87716
G1 X137.675 Y131.752 E23.94155
G1 X135.663 Y134.231 E24.04774
G1 X134.143 Y135.743 E24.11905
G1 X131.752 Y137.675 E24.22129
G1 X130.13 Y138.728 E24.28561
G1 X127.559 Y140.05 E24.38177
G1 X124.833 Y141.085 E24.47875
G1 X122.731 Y141.639 E24.55105
G1 X120.335 Y142.032 E24.63181
G1 X117.232 Y142.187 E24.73514
G1 X114.591 Y142.022 E24.82315
G1 X112.677 Y141.719 E24.88761
G1 X109.58 Y140.887 E24.99426
G1 X107.309 Y139.992 E25.07545
G1 X104.87 Y138.728 E25.16682
G1 X103.248 Y137.675 E25.23114
G1 X100.769 Y135.663 E25.33733
G1 X99.257 Y134.143 E25.40864
G1 X97.325 Y131.752 E25.51088
G1 X96.271 Y130.128 E25.57527
G1 X94.93 Y127.516 E25.67293
G1 X93.915 Y124.833 E25.76834
G1 X93.361 Y122.731 E25.84064
G1 X92.968 Y120.335 E25.9214
G1 X92.813 Y117.233 E26.0247
G1 X92.978 Y114.591 E26.11274
G1 X93.281 Y112.677 E26.17719
G1 X94.11 Y109.58 E26.28383
G1 X94.953 Y107.425 E26.36079
G1 X96.271 Y104.872 E26.45635
G1 X97.325 Y103.248 E26.52075
G1 X99.337 Y100.769 E26.62694
G0 F6000 X99.619 Y101.053
G1 F900 X101.139 Y99.541 E26.69825
G1 X103.466 Y97.661 E26.79774
G1 X105.088 Y96.608 E26.86206
G1 X107.583 Y95.324 E26.95539
G1 X110.269 Y94.302 E27.05098
G1 X112.334 Y93.756 E27.12202
G1 X114.685 Y93.368 E27.20127
G1 X117.788 Y93.213 E27.30461
G1 X120.346 Y93.373 E27.38985
G1 X122.26 Y93.676 E27.45431
G1 X125.274 Y94.485 E27.5581
G1 X127.507 Y95.363 E27.6379
G1 X129.91 Y96.607 E27.7279
G1 X131.534 Y97.661 E27.7923
G1 X133.947 Y99.619 E27.89565
G1 X135.459 Y101.139 E27.96696
G1 X137.339 Y103.466 E28.06646
G1 X138.392 Y105.088 E28.13078
G1 X139.676 Y107.583 E28.22411
G1 X140.698 Y110.269 E28.31969
G1 X141.244 Y112.334 E28.39073
G1 X141.632 Y114.682 E28.46989
G1 X141.787 Y117.787 E28.57329
G1 X141.627 Y120.346 E28.65857
G1 X141.324 Y122.26 E28.72302
G1 X140.517 Y125.274 E28.8268
G1 X139.674 Y127.429 E28.90376
G1 X138.393 Y129.91 E28.99663
G1 X137.339 Y131.534 E29.06102
G1 X135.381 Y133.947 E29.16438
G1 X133.861 Y135.459 E29.23569
G1 X131.534 Y137.339 E29.33519
G1 X129.912 Y138.392 E29.39951
G1 X127.417 Y139.676 E29.49283
G1 X124.731 Y140.698 E29.58842
G1 X122.666 Y141.244 E29.65946
G1 X120.315 Y141.632 E29.73871
G1 X117.212 Y141.787 E29.84205
G1 X114.654 Y141.627 E29.92729
G1 X112.74 Y141.324 E29.99175
G1 X109.726 Y140.515 E30.09554
G1 X107.493 Y139.637 E30.17535
G1 X105.088 Y138.392 E30.26542
G1 X103.466 Y137.339 E30.32974
G1 X101.053 Y135.381 E30.43309
G1 X99.541 Y133.861 E30.5044
G1 X97.661 Y131.534 E30.6039
G1 X96.607 Y129.91 E30.66829
G1 X95.304 Y127.374 E30.76312
G1 X94.302 Y124.731 E30.85714
G1 X93.756 Y122.666 E30.92818
G1 X93.368 Y120.315 E31.00743
G1 X93.213 Y117.213 E31.11073
G1 X93.373 Y114.654 E31.19601
G1 X93.676 Y112.74 E31.26046
G1 X94.483 Y109.726 E31.36424
G1 X95.326 Y107.571 E31.44121
G1 X96.607 Y105.09 E31.53407
G1 X97.661 Y103.466 E31.59847
G1 X99.619 Y101.053 E31.70182
G0 F6000 X99.901 Y101.337
G1 F900 X101.421 Y99.825 E31.77313
G1 X103.684 Y97.997 E31.86989
G1 X105.306 Y96.944 E31.93421
G1 X107.725 Y95.698 E32.02471
G1 X110.372 Y94.689 E32.11893
G1 X112.4 Y94.151 E32.18871
G1 X114.705 Y93.768 E32.26643
G1 X117.808 Y93.613 E32.36976
G1 X120.283 Y93.768 E32.45224
G1 X122.197 Y94.071 E32.5167
G1 X125.128 Y94.857 E32.61763
G1 X127.323 Y95.718 E32.69605
G1 X129.692 Y96.943 E32.78475
G1 X131.316 Y97.997 E32.84914
G1 X133.663 Y99.901 E32.94966
G1 X135.175 Y101.421 E33.02097
G1 X137.003 Y103.684 E33.11773
G1 X138.056 Y105.306 E33.18205
G1 X139.302 Y107.725 E33.27255
G1 X140.311 Y110.372 E33.36677
G1 X140.849 Y112.4 E33.43655
G1 X141.232 Y114.702 E33.51417
G1 X141.387 Y117.807 E33.61757
G1 X141.232 Y120.283 E33.70008
G1 X140.929 Y122.197 E33.76454
G1 X140.144 Y125.128 E33.86546
G1 X139.301 Y127.283 E33.94242
G1 X138.057 Y129.692 E34.0326
G1 X137.003 Y131.316 E34.09699
G1 X135.099 Y133.663 E34.19751
G1 X133.579 Y135.175 E34.26882
G1 X131.316 Y137.003 E34.36558
G1 X129.694 Y138.056 E34.42989
G1 X127.275 Y139.302 E34.5204
G1 X124.628 Y140.311 E34.61462
G1 X122.6 Y140.849 E34.6844
G1 X120.295 Y141.232 E34.76212
G1 X117.192 Y141.387 E34.86545
G1 X114.717 Y141.232 E34.94793
G1 X112.803 Y140.929 E35.01238
G1 X109.872 Y140.143 E35.11331
G1 X107.677 Y139.282 E35.19174
G1 X105.306 Y138.056 E35.28051
G1 X103.684 Y137.003 E35.34483
G1 X101.337 Y135.099 E35.44535
G1 X99.825 Y133.579 E35.51666
G1 X97.997 Y131.316 E35.61342
G1 X96.943 Y129.692 E35.67781
G1 X95.678 Y127.232 E35.76981
G1 X94.689 Y124.628 E35.86246
G1 X94.151 Y122.6 E35.93224
G1 X93.768 Y120.295 E36.00996
G1 X93.613 Y117.193 E36.11326
G1 X93.768 Y114.717 E36.19578
G1 X94.071 Y112.803 E36.26023
G1 X94.856 Y109.872 E36.36115
G1 X95.699 Y107.717 E36.43811
G1 X96.943 Y105.308 E36.52829
G1 X97.997 Y103.684 E36.59268
G1 X99.901 Y101.337 E36.6932
G0 F6000 X100.183 Y101.621
G1 F900 X101.703 Y100.109 E36.76451
G1 X103.902 Y98.333 E36.85852
G1 X105.524 Y97.28 E36.92284
G1 X107.868 Y96.072 E37.01055
G1 X110.475 Y95.076 E37.10337
G1 X112.466 Y94.546 E37.1719
G1 X114.771 Y94.163 E37.24961
G1 X117.783 Y94.012 E37.34992
G1 X120.22 Y94.163 E37.43113
G1 X122.134 Y94.466 E37.49558
G1 X124.982 Y95.229 E37.59365
G1 X127.139 Y96.073 E37.67069
G1 X129.474 Y97.279 E37.75809
G1 X131.098 Y98.333 E37.82249
G1 X133.379 Y100.183 E37.92017
G1 X134.891 Y101.703 E37.99148
G1 X136.667 Y103.902 E38.08549
G1 X137.72 Y105.524 E38.14981
G1 X138.928 Y107.868 E38.23752
G1 X139.924 Y110.475 E38.33034
G1 X140.454 Y112.466 E38.39887
G1 X140.837 Y114.768 E38.47648
G1 X140.988 Y117.782 E38.57686
G1 X140.837 Y120.22 E38.6581
G1 X140.534 Y122.134 E38.72255
G1 X139.771 Y124.982 E38.82062
G1 X138.928 Y127.137 E38.89758
G1 X137.721 Y129.474 E38.98507
G1 X136.667 Y131.098 E39.04946
G1 X134.817 Y133.379 E39.14714
G1 X133.297 Y134.891 E39.21845
G1 X131.098 Y136.667 E39.31246
G1 X129.476 Y137.72 E39.37678
G1 X127.132 Y138.928 E39.46449
G1 X124.525 Y139.924 E39.55731
G1 X122.534 Y140.454 E39.62584
G1 X120.229 Y140.837 E39.70355
G1 X117.217 Y140.988 E39.80386
G1 X114.78 Y140.837 E39.88507
G1 X112.866 Y140.534 E39.94952
G1 X110.018 Y139.771 E40.04759
G1 X107.861 Y138.927 E40.12463
G1 X105.524 Y137.72 E40.21211
G1 X103.902 Y136.667 E40.27643
G1 X101.621 Y134.817 E40.37411
G1 X100.109 Y133.297 E40.44542
G1 X98.333 Y131.098 E40.53943
G1 X97.279 Y129.474 E40.60383
G1 X96.052 Y127.09 E40.693
G1 X95.076 Y124.525 E40.78428
G1 X94.546 Y122.534 E40.85281
G1 X94.163 Y120.229 E40.93053
G1 X94.012 Y117.218 E41.0308
G1 X94.163 Y114.78 E41.11204
G1 X94.466 Y112.866 E41.17649
G1 X95.229 Y110.018 E41.27456
G1 X96.072 Y107.863 E41.35152
G1 X97.279 Y105.526 E41.43901
